PSD files/lut/Deer makeup sticker final.CUBE
#Created by: Adobe Photoshop Export Color Lookup Plugin
TITLE "Deer makeup sticker final.psd"
#LUT size
LUT_3D_SIZE 5
#data domain
#LUT data points
DOMAIN_MIN 0.000000 0.000000 0.000000
DOMAIN_MAX 0.903226 0.903226 0.903226
0.823517 0.799988 0.780396
0.819611 0.796082 0.776459
0.819611 0.796082 0.776459
0.815674 0.792145 0.772552
0.815674 0.792145 0.772552
0.572174 0.514038 0.486328
0.572113 0.520905 0.485352
0.572266 0.522736 0.487274
0.580017 0.521820 0.494080
0.580109 0.522736 0.495087
0.878418 0.737244 0.670593
0.858826 0.690186 0.623535
0.839203 0.658813 0.596069
0.847046 0.666656 0.607849
0.870575 0.701965 0.647064
0.889130 0.674103 0.614136
0.884979 0.667999 0.611328
0.884552 0.660645 0.603760
0.880829 0.658508 0.601776
0.876587 0.649719 0.589600
0.796082 0.768616 0.749023
0.796082 0.768616 0.749023
0.796082 0.768616 0.749023
0.792145 0.764709 0.745087
0.788239 0.764709 0.745087
0.819611 0.796082 0.776459
0.819611 0.796082 0.776459
0.819611 0.796082 0.776459
0.815674 0.792145 0.772552
0.815674 0.792145 0.768616
0.552704 0.487640 0.463898
0.552704 0.487640 0.471680
0.560608 0.496307 0.472626
0.560547 0.495453 0.471680
0.560547 0.495453 0.471680
0.878418 0.729401 0.662750
0.862732 0.701965 0.643127
0.858826 0.698029 0.635284
0.882355 0.729401 0.674500
0.905884 0.772552 0.717651
0.877106 0.659821 0.596405
0.876678 0.652466 0.592316
0.872681 0.647766 0.587585
0.868805 0.644318 0.584229
0.868561 0.633453 0.573486
0.799988 0.772552 0.752930
0.796082 0.772552 0.752930
0.796082 0.768616 0.749023
0.796082 0.768616 0.749023
0.792145 0.768616 0.749023
0.819611 0.796082 0.776459
0.819611 0.796082 0.772552
0.819611 0.796082 0.776459
0.815674 0.792145 0.772552
0.815674 0.792145 0.768616
0.517487 0.465057 0.437469
0.525330 0.465057 0.445282
0.525330 0.468933 0.445282
0.533173 0.468933 0.445282
0.533173 0.468933 0.445282
0.882355 0.737244 0.674500
0.878418 0.729401 0.662750
0.878418 0.733337 0.670593
0.898041 0.756866 0.701965
0.913727 0.784302 0.729401
0.869324 0.645996 0.582855
0.865326 0.641296 0.578217
0.861084 0.634094 0.574219
0.861206 0.633789 0.574066
0.853302 0.618774 0.562653
0.799988 0.776459 0.756866
0.799988 0.772552 0.752930
0.799988 0.772552 0.752930
0.796082 0.772552 0.752930
0.796082 0.768616 0.749023
0.819611 0.796082 0.776459
0.815674 0.792145 0.772552
0.819611 0.796082 0.772552
0.815674 0.792145 0.768616
0.815674 0.792145 0.768616
0.497955 0.442383 0.418793
0.505890 0.447052 0.427460
0.505798 0.446259 0.426605
0.513641 0.454102 0.426605
0.513641 0.454102 0.434448
0.894104 0.760773 0.698029
0.890198 0.756866 0.690186
0.894104 0.756866 0.698029
0.905884 0.772552 0.717651
0.913727 0.784302 0.729401
0.849976 0.632233 0.565979
0.849579 0.621674 0.562103
0.845551 0.618774 0.559265
0.837677 0.610687 0.551270
0.833923 0.608490 0.549194
0.799988 0.780396 0.760773
0.799988 0.776459 0.756866
0.799988 0.776459 0.756866
0.796082 0.772552 0.752930
0.796082 0.772552 0.752930
0.819611 0.796082 0.776459
0.815674 0.792145 0.772552
0.819611 0.796082 0.772552
0.815674 0.792145 0.768616
0.815674 0.792145 0.768616
0.486267 0.427460 0.407837
0.486267 0.435303 0.411774
0.494110 0.435303 0.411774
0.494110 0.435303 0.411774
0.494110 0.435303 0.411774
0.909973 0.784698 0.722046
0.909973 0.784698 0.725983
0.913879 0.788635 0.729889
0.917633 0.788239 0.733337
0.921570 0.799988 0.745087
0.830750 0.612762 0.553741
0.826447 0.610901 0.551727
0.826691 0.609833 0.547455
0.815033 0.599426 0.537231
0.807526 0.594849 0.536285
0.799988 0.784302 0.760773
0.799988 0.784302 0.760773
0.799988 0.776459 0.756866
0.799988 0.776459 0.756866
0.799988 0.772552 0.752930
