PSD files/lut/Deer makeup sticker final.CUBE
#Created by: Adobe Photoshop Export Color Lookup Plugin
TITLE "Deer makeup sticker final.psd"
#LUT size
LUT_3D_SIZE 8
#data domain
#LUT data points
DOMAIN_MIN 0.000000 0.000000 0.000000
DOMAIN_MAX 0.903226 0.903226 0.903226
0.823517 0.799988 0.780396
0.819611 0.796082 0.776459
0.819611 0.796082 0.776459
0.819611 0.796082 0.776459
0.819611 0.796082 0.776459
0.815674 0.796082 0.772552
0.815674 0.792145 0.772552
0.815674 0.792145 0.772552
0.796082 0.764709 0.733337
0.792145 0.764709 0.733337
0.792145 0.760773 0.733337
0.792145 0.760773 0.729401
0.788239 0.756866 0.729401
0.788239 0.756866 0.725494
0.788239 0.756866 0.725494
0.788239 0.756866 0.725494
0.474518 0.415680 0.403931
0.478424 0.423523 0.403931
0.478424 0.423523 0.407837
0.486267 0.427460 0.407837
0.486267 0.427460 0.407837
0.486267 0.427460 0.407837
0.486267 0.427460 0.407837
0.478424 0.427460 0.407837
0.922913 0.773987 0.725037
0.922913 0.773987 0.725037
0.922638 0.771210 0.722046
0.922485 0.767029 0.717804
0.922211 0.760468 0.711090
0.918182 0.759094 0.709625
0.918732 0.760834 0.704254
0.914093 0.746490 0.693207
0.958313 0.878021 0.835907
0.960876 0.875183 0.832123
0.960205 0.873108 0.829407
0.959686 0.871552 0.827332
0.959015 0.869476 0.824585
0.958435 0.867645 0.822205
0.954224 0.858704 0.816650
0.953949 0.850220 0.804077
0.918274 0.752655 0.703003
0.917297 0.744019 0.693695
0.916840 0.741730 0.691132
0.917114 0.740814 0.686829
0.912659 0.736237 0.681915
0.912048 0.728027 0.673401
0.907898 0.721741 0.663361
0.908142 0.721649 0.663483
0.524841 0.464050 0.447662
0.524841 0.464050 0.447662
0.524841 0.464050 0.447662
0.528778 0.475647 0.451538
0.532684 0.471771 0.451538
0.532745 0.472595 0.452454
0.532928 0.474274 0.454285
0.532745 0.472595 0.452454
0.796082 0.768616 0.749023
0.796082 0.768616 0.749023
0.796082 0.768616 0.749023
0.796082 0.768616 0.749023
0.792145 0.768616 0.749023
0.792145 0.764709 0.745087
0.792145 0.764709 0.745087
0.788239 0.764709 0.745087
0.819611 0.799988 0.776459
0.819611 0.796082 0.776459
0.819611 0.796082 0.776459
0.819611 0.796082 0.776459
0.819611 0.796082 0.776459
0.815674 0.792145 0.772552
0.815674 0.792145 0.772552
0.815674 0.792145 0.768616
0.792145 0.760773 0.733337
0.792145 0.760773 0.733337
0.792145 0.760773 0.733337
0.792145 0.760773 0.729401
0.788239 0.756866 0.729401
0.788239 0.752930 0.725494
0.784302 0.752930 0.725494
0.784302 0.752930 0.721558
0.474457 0.407135 0.399200
0.474518 0.415680 0.399994
0.474518 0.415680 0.399994
0.474518 0.415680 0.403931
0.474518 0.415680 0.403931
0.474518 0.423523 0.403931
0.474518 0.415680 0.403931
0.474518 0.415680 0.403931
0.923645 0.784760 0.732513
0.923492 0.783356 0.731018
0.922913 0.774963 0.726044
0.922760 0.769806 0.720795
0.922760 0.765991 0.717010
0.919159 0.768738 0.719940
0.919159 0.764954 0.708588
0.915100 0.755981 0.703369
0.958130 0.877502 0.835236
0.957397 0.875427 0.832489
0.956696 0.873352 0.829742
0.955872 0.871033 0.826660
0.955322 0.869476 0.824585
0.954681 0.863892 0.818420
0.954315 0.858978 0.813171
0.950104 0.846375 0.804077
0.913574 0.741760 0.687958
0.916260 0.736237 0.685272
0.916412 0.734009 0.679565
0.911957 0.729431 0.674622
0.911469 0.722626 0.667603
0.907898 0.721741 0.666931
0.907349 0.712738 0.657623
0.903259 0.708618 0.653473
0.544525 0.484222 0.467926
0.540833 0.482880 0.462982
0.540588 0.480347 0.460205
0.540588 0.484222 0.460205
0.544617 0.485107 0.468872
0.544678 0.485931 0.469818
0.544861 0.487640 0.471680
0.544769 0.486786 0.470764
0.796082 0.772552 0.752930
0.796082 0.772552 0.752930
0.796082 0.768616 0.749023
0.796082 0.768616 0.749023
0.796082 0.768616 0.749023
0.792145 0.768616 0.749023
0.792145 0.764709 0.745087
0.792145 0.764709 0.745087
0.819611 0.796082 0.776459
0.819611 0.796082 0.776459
0.819611 0.796082 0.776459
0.819611 0.796082 0.776459
0.819611 0.796082 0.772552
0.815674 0.792145 0.772552
0.815674 0.792145 0.772552
0.815674 0.792145 0.768616
0.788239 0.756866 0.725494
0.788239 0.756866 0.729401
0.788239 0.756866 0.729401
0.788239 0.756866 0.725494
0.784302 0.752930 0.725494
0.784302 0.749023 0.721558
0.780396 0.749023 0.721558
0.780396 0.749023 0.721558
0.470428 0.398590 0.382782
0.470520 0.407135 0.391357
0.470520 0.407135 0.391357
0.470520 0.407135 0.391357
0.470520 0.407135 0.391357
0.470520 0.407135 0.391357
0.470581 0.407837 0.392151
0.462738 0.407837 0.392151
0.923340 0.781982 0.729523
0.923645 0.784760 0.732513
0.923767 0.783295 0.735016
0.923492 0.776703 0.728210
0.919159 0.768738 0.719940
0.919434 0.767700 0.715302
0.919586 0.765228 0.712982
0.911072 0.754608 0.698151
0.954041 0.868835 0.822449
0.956940 0.866913 0.823517
0.956329 0.864990 0.821045
0.955597 0.862823 0.818176
0.955139 0.861450 0.816406
0.954590 0.856018 0.810455
0.950287 0.850769 0.804810
0.949890 0.841919 0.799469
0.908569 0.731781 0.673676
0.912231 0.731293 0.676636
0.911377 0.723969 0.665283
0.907379 0.719025 0.663849
0.907654 0.721771 0.663177
0.906647 0.709564 0.653931
0.902405 0.704102 0.644867
0.902527 0.702728 0.647125
0.560364 0.501495 0.477570
0.560272 0.500610 0.476624
0.560272 0.500610 0.476624
0.560547 0.503235 0.479492
0.560547 0.503235 0.479492
0.560547 0.503235 0.479492
0.560455 0.506256 0.478546
0.560547 0.507141 0.479492
0.799988 0.772552 0.752930
0.799988 0.772552 0.752930
0.796082 0.772552 0.752930
0.796082 0.768616 0.749023
0.796082 0.768616 0.749023
0.796082 0.768616 0.749023
0.792145 0.768616 0.749023
0.792145 0.768616 0.749023
0.819611 0.796082 0.776459
0.819611 0.796082 0.776459
0.819611 0.796082 0.776459
0.819611 0.796082 0.776459
0.819611 0.796082 0.772552
0.815674 0.792145 0.772552
0.815674 0.792145 0.772552
0.815674 0.792145 0.772552
0.784302 0.752930 0.721558
0.784302 0.752930 0.725494
0.784302 0.749023 0.721558
0.784302 0.749023 0.721558
0.780396 0.749023 0.721558
0.780396 0.745087 0.721558
0.776459 0.745087 0.717651
0.776459 0.741180 0.717651
0.470306 0.393341 0.377380
0.470306 0.397217 0.381256
0.470367 0.397919 0.382019
0.462524 0.397919 0.382019
0.462585 0.394714 0.382782
0.454742 0.394714 0.382782
0.454742 0.394714 0.378906
0.454834 0.395386 0.383545
0.924194 0.790344 0.738495
0.924622 0.790649 0.742920
0.923492 0.775757 0.727203
0.923920 0.780853 0.732666
0.920013 0.777008 0.728821
0.919739 0.770416 0.718231
0.915649 0.765228 0.709137
0.912048 0.760254 0.704376
0.949249 0.854614 0.810791
0.948822 0.857117 0.812958
0.951874 0.855377 0.810730
0.951385 0.853943 0.808868
0.950867 0.852509 0.807037
0.950378 0.847260 0.805176
0.946167 0.842224 0.799866
0.945740 0.837158 0.790588
0.907959 0.723633 0.668762
0.907379 0.719025 0.663849
0.907104 0.716309 0.657410
0.906982 0.711426 0.655975
0.906494 0.708191 0.652496
0.902283 0.699249 0.646942
0.902283 0.699249 0.643463
0.897949 0.696014 0.639954
0.572357 0.523651 0.496063
0.568298 0.514038 0.494080
0.568298 0.521820 0.494080
0.568298 0.521820 0.494080
0.572174 0.521820 0.494080
0.572266 0.522736 0.498962
0.572174 0.521820 0.497955
0.572540 0.525482 0.501953
0.799988 0.772552 0.752930
0.796082 0.772552 0.752930
0.799988 0.772552 0.752930
0.796082 0.772552 0.752930
0.796082 0.772552 0.752930
0.796082 0.768616 0.749023
0.796082 0.768616 0.749023
0.796082 0.768616 0.749023
0.819611 0.796082 0.776459
0.819611 0.796082 0.776459
0.819611 0.796082 0.772552
0.819611 0.796082 0.772552
0.819611 0.796082 0.772552
0.815674 0.792145 0.772552
0.815674 0.792145 0.768616
0.815674 0.792145 0.768616
0.780396 0.745087 0.721558
0.780396 0.745087 0.721558
0.776459 0.745087 0.721558
0.776459 0.745087 0.721558
0.776459 0.745087 0.717651
0.772552 0.741180 0.717651
0.772552 0.741180 0.709808
0.772552 0.737244 0.709808
0.470001 0.386688 0.366638
0.470062 0.391266 0.375122
0.462250 0.391266 0.375122
0.462311 0.391968 0.375885
0.454468 0.388062 0.368134
0.454559 0.388733 0.368866
0.450714 0.389435 0.369598
0.450714 0.389435 0.369598
0.924194 0.790344 0.738495
0.924347 0.787872 0.739960
0.924347 0.784027 0.736145
0.920441 0.780151 0.732269
0.920166 0.774536 0.722626
0.916351 0.772034 0.720245
0.912598 0.769531 0.713989
0.908264 0.757782 0.705811
0.944000 0.839233 0.790497
0.943665 0.842072 0.793030
0.943329 0.841156 0.795654
0.946686 0.843719 0.794098
0.946381 0.842834 0.792938
0.946045 0.838074 0.791748
0.945740 0.837158 0.790588
0.941620 0.828735 0.782013
0.903351 0.714142 0.658844
0.907074 0.713623 0.658234
0.902771 0.705170 0.649628
0.902649 0.703827 0.648193
0.901733 0.693878 0.637726
0.902130 0.697906 0.642029
0.897980 0.691681 0.639191
0.897400 0.683655 0.630798
0.591980 0.543213 0.515594
0.591980 0.543213 0.515594
0.591888 0.542267 0.514557
0.588226 0.545105 0.517639
0.588043 0.535400 0.515594
0.587769 0.540375 0.512512
0.591980 0.543213 0.515594
0.591980 0.543213 0.519501
0.799988 0.776459 0.756866
0.799988 0.776459 0.756866
0.799988 0.776459 0.756866
0.799988 0.772552 0.752930
0.796082 0.772552 0.752930
0.796082 0.772552 0.752930
0.796082 0.768616 0.749023
0.796082 0.768616 0.749023
0.819611 0.796082 0.776459
0.819611 0.796082 0.776459
0.815674 0.792145 0.772552
0.815674 0.792145 0.772552
0.815674 0.792145 0.772552
0.815674 0.792145 0.768616
0.815674 0.792145 0.768616
0.815674 0.792145 0.768616
0.776459 0.741180 0.717651
0.776459 0.741180 0.717651
0.772552 0.741180 0.717651
0.772552 0.741180 0.717651
0.772552 0.737244 0.709808
0.768616 0.737244 0.709808
0.768616 0.737244 0.705872
0.768616 0.729401 0.705872
0.473511 0.382599 0.362213
0.473572 0.383301 0.362946
0.469727 0.380157 0.363678
0.461884 0.383972 0.363678
0.454193 0.381500 0.357483
0.454254 0.386017 0.365906
0.450378 0.382172 0.358215
0.442657 0.383514 0.359650
0.924622 0.790649 0.742920
0.920715 0.790649 0.739105
0.920868 0.784271 0.736694
0.921021 0.781769 0.730408
0.916931 0.777496 0.726044
0.912750 0.770905 0.719269
0.908813 0.763153 0.711517
0.908813 0.759247 0.707672
0.934875 0.823639 0.773712
0.934723 0.827148 0.777130
0.938477 0.830688 0.780579
0.938110 0.829712 0.779327
0.937988 0.829376 0.782806
0.941620 0.828735 0.782013
0.937622 0.828430 0.777679
0.937500 0.824188 0.773376
0.902649 0.703827 0.644684
0.902039 0.699280 0.639801
0.901917 0.694427 0.638336
0.898071 0.694427 0.638336
0.897430 0.689880 0.633453
0.897430 0.686340 0.630005
0.893555 0.682892 0.623138
0.893341 0.678802 0.619049
0.603729 0.551025 0.527313
0.603638 0.550049 0.526276
0.603821 0.551971 0.528351
0.607849 0.556854 0.537262
0.603912 0.552948 0.529419
0.607574 0.553955 0.534058
0.607849 0.564697 0.537262
0.607849 0.564697 0.537262
0.799988 0.776459 0.756866
0.799988 0.776459 0.756866
0.799988 0.776459 0.756866
0.799988 0.776459 0.756866
0.799988 0.772552 0.752930
0.796082 0.772552 0.752930
0.796082 0.768616 0.749023
0.796082 0.772552 0.752930
0.819611 0.796082 0.776459
0.819611 0.796082 0.772552
0.815674 0.792145 0.772552
0.819611 0.796082 0.772552
0.815674 0.792145 0.772552
0.815674 0.792145 0.768616
0.815674 0.792145 0.768616
0.815674 0.792145 0.768616
0.768616 0.737244 0.705872
0.768616 0.729401 0.705872
0.768616 0.729401 0.705872
0.768616 0.737244 0.709808
0.768616 0.737244 0.709808
0.764709 0.729401 0.705872
0.764709 0.729401 0.705872
0.764709 0.725494 0.701965
0.496277 0.380249 0.363037
0.484619 0.380951 0.356293
0.476868 0.377838 0.357025
0.473053 0.374756 0.350250
0.461395 0.375427 0.350952
0.453705 0.376770 0.352417
0.449951 0.378113 0.353851
0.442261 0.371796 0.351471
0.920868 0.792053 0.740601
0.921143 0.787048 0.739655
0.920868 0.784271 0.736694
0.916931 0.781372 0.726044
0.913025 0.773621 0.722168
0.912750 0.766998 0.711517
0.908813 0.759247 0.707672
0.905060 0.752838 0.693604
0.926331 0.813873 0.755615
0.926178 0.813507 0.759094
0.929962 0.817047 0.762512
0.929962 0.817047 0.762512
0.929810 0.816711 0.765991
0.933563 0.820282 0.769470
0.933441 0.816010 0.765137
0.929535 0.816010 0.761200
0.898071 0.694427 0.638336
0.897919 0.693115 0.636963
0.897369 0.687744 0.631226
0.897278 0.684998 0.628601
0.893158 0.682373 0.625732
0.893158 0.678894 0.618958
0.889008 0.672760 0.612701
0.884766 0.663971 0.607269
0.623352 0.570557 0.546844
0.623352 0.570557 0.546844
0.623352 0.570557 0.546844
0.623444 0.571533 0.547913
0.619507 0.575470 0.547913
0.619415 0.574463 0.546844
0.623535 0.572540 0.549011
0.623444 0.571533 0.547913
0.799988 0.784302 0.760773
0.799988 0.780396 0.760773
0.799988 0.776459 0.756866
0.799988 0.776459 0.756866
0.799988 0.776459 0.756866
0.799988 0.772552 0.752930
0.796082 0.772552 0.752930
0.796082 0.772552 0.752930
0.819611 0.796082 0.776459
0.819611 0.796082 0.776459
0.815674 0.792145 0.772552
0.819611 0.796082 0.772552
0.815674 0.792145 0.772552
0.815674 0.792145 0.768616
0.815674 0.792145 0.768616
0.815674 0.792145 0.768616
0.764709 0.725494 0.701965
0.764709 0.725494 0.701965
0.764709 0.725494 0.701965
0.764709 0.725494 0.701965
0.764709 0.725494 0.701965
0.760773 0.721558 0.698029
0.760773 0.721558 0.698029
0.756866 0.717651 0.698029
0.444794 0.754089 0.263855
0.558105 0.411835 0.382751
0.530792 0.397003 0.368042
0.503571 0.379150 0.357758
0.484253 0.373749 0.352600
0.468628 0.370026 0.345184
0.453217 0.368286 0.343597
0.449524 0.366516 0.345734
0.921448 0.789795 0.742584
0.921295 0.784515 0.733337
0.917236 0.783142 0.727997
0.913330 0.775391 0.724091
0.913452 0.773773 0.718689
0.909241 0.767181 0.711945
0.905457 0.756805 0.697784
0.901123 0.745087 0.685852
0.914063 0.789032 0.730377
0.917938 0.792908 0.734314
0.921875 0.796844 0.738190
0.921722 0.800354 0.745544
0.925629 0.804291 0.749481
0.925629 0.808197 0.753387
0.925629 0.808197 0.753387
0.925476 0.803925 0.749023
0.893707 0.687683 0.631439
0.894012 0.686096 0.633514
0.893280 0.680237 0.620361
0.892731 0.674927 0.614716
0.888855 0.671448 0.611328
0.884827 0.666687 0.609924
0.884705 0.661957 0.605164
0.880890 0.660522 0.603851
0.635193 0.583313 0.563568
0.635284 0.584320 0.564697
0.635193 0.583313 0.563568
0.635193 0.583313 0.563568
0.635284 0.584320 0.564697
0.635193 0.583313 0.563568
0.635284 0.584320 0.564697
0.635193 0.583313 0.563568
0.799988 0.784302 0.760773
0.799988 0.784302 0.760773
0.799988 0.780396 0.760773
0.799988 0.780396 0.760773
0.799988 0.776459 0.756866
0.799988 0.776459 0.756866
0.799988 0.772552 0.752930
0.799988 0.772552 0.752930
