PSD files/lut/Deer makeup sticker final.3DL
#Created by: Adobe Photoshop Export Color Lookup Plugin
#Description: Deer makeup sticker final.psd
0 33 66 99 132 165 198 231 264 297 330 363 396 429 462 495 528 561 594 627 660 693 726 759 792 825 858 891 924 957 990 1023
3372 3276 3196
3372 3276 3196
3372 3276 3196
3372 3276 3196
3356 3276 3180
3356 3260 3180
3356 3260 3180
3356 3260 3180
3356 3260 3180
3356 3260 3180
3356 3260 3180
3356 3260 3180
3356 3260 3180
3356 3260 3180
3356 3260 3180
3356 3260 3180
3356 3260 3180
3356 3260 3180
3356 3260 3180
3356 3260 3180
3356 3260 3180
3356 3260 3180
3356 3260 3180
3356 3260 3180
3356 3260 3180
3356 3260 3180
3356 3260 3180
3356 3260 3180
3356 3260 3180
3356 3260 3180
3356 3260 3180
3356 3260 3180
3356 3260 3180
3356 3260 3180
3356 3260 3180
3356 3260 3180
3356 3260 3180
3356 3260 3180
3356 3260 3180
3356 3260 3180
3356 3260 3164
3356 3260 3164
3356 3260 3164
3356 3260 3164
3356 3260 3164
3356 3260 3164
3356 3244 3164
3340 3244 3164
3340 3244 3164
3340 3244 3164
3340 3244 3164
3340 3244 3164
3340 3244 3164
3340 3244 3164
3340 3244 3164
3340 3244 3147
3340 3244 3147
3340 3244 3147
3340 3244 3147
3340 3244 3147
3340 3244 3147
3340 3244 3147
3340 3244 3147
3340 3244 3147
3340 3244 3147
3340 3244 3131
3340 3244 3131
3340 3244 3147
3340 3244 3131
3340 3244 3131
3340 3244 3131
3340 3244 3131
3340 3244 3147
3340 3244 3147
3340 3244 3147
3340 3244 3147
3340 3244 3147
3340 3244 3147
3340 3244 3131
3340 3244 3131
3340 3228 3131
3340 3228 3131
3324 3228 3131
3324 3228 3131
3324 3228 3131
3324 3228 3131
3324 3228 3131
3324 3228 3115
3324 3212 3115
3324 3212 3115
3324 3212 3115
3324 3212 3115
3308 3212 3115
3308 3212 3115
3308 3212 3099
3308 3212 3099
3308 3212 3099
3308 3212 3099
3308 3212 3099
3308 3212 3099
3308 3196 3099
3308 3196 3099
3308 3196 3099
3292 3196 3099
3292 3196 3099
3292 3196 3099
3292 3196 3099
3292 3196 3083
3292 3196 3083
3292 3180 3083
3292 3180 3083
3292 3180 3083
3276 3180 3083
3276 3180 3083
3276 3180 3067
3276 3164 3067
3276 3164 3067
3276 3164 3067
3276 3164 3067
3276 3164 3051
3276 3147 3051
3276 3147 3051
3260 3147 3019
3260 3147 3019
3260 3147 3019
3260 3131 3019
3260 3131 3019
3260 3131 3019
3260 3131 3003
3244 3115 3003
3244 3115 3003
3244 3115 3003
3244 3115 3003
3228 3099 2987
3228 3099 2987
3228 3099 2987
3228 3099 2971
3212 3083 2971
3212 3083 2971
3212 3083 2971
3212 3083 2955
3212 3067 2955
3196 3067 2955
3196 3067 2955
3196 3051 2955
3196 3051 2955
3180 3051 2955
3180 3035 2939
3180 3035 2939
3164 3035 2939
3164 3019 2907
3164 3019 2907
3147 3019 2891
3147 2987 2891
3131 2987 2891
3131 2971 2875
3131 2971 2875
3131 2971 2875
3131 2971 2875
3115 2955 2858
3115 2955 2858
3115 2955 2858
3099 2939 2826
3099 2939 2826
3083 2923 2810
3083 2923 2810
3067 2923 2794
3051 2907 2762
3051 2907 2762
3035 2858 2746
3019 2875 2746
3019 2858 2746
3003 2858 2730
3003 2858 2730
2987 2826 2698
2987 2842 2698
2971 2810 2682
2971 2794 2682
2955 2778 2666
2955 2778 2666
2939 2762 2634
2939 2746 2634
2923 2746 2634
2923 2714 2634
2907 2730 2618
2907 2714 2618
2875 2698 2585
2858 2677 2564
2858 2677 2564
2842 2650 2537
2842 2634 2537
2810 2618 2521
2794 2613 2484
2793 2576 2479
2778 2585 2489
2777 2576 2463
2746 2585 2441
2745 2556 2426
2730 2565 2420
2729 2524 2410
2714 2521 2393
2681 2485 2356
2665 2481 2351
2648 2456 2326
2649 2437 2308
2617 2417 2303
2617 2421 2308
2601 2384 2271
2601 2373 2244
2569 2368 2239
2553 2336 2223
2553 2304 2191
2521 2288 2191
2520 2284 2155
2504 2256 2159
2472 2252 2123
2472 2256 2111
2456 2221 2107
2424 2189 2075
2424 2192 2079
2423 2169 2039
2408 2173 2043
2408 2173 2043
2375 2137 2023
2343 2105 1992
2327 2109 1995
2327 2077 1964
2295 2061 1964
2295 2057 1944
2295 2029 1932
2264 2000 1935
2263 1997 1900
2263 1997 1900
2231 1981 1868
2215 1952 1855
2183 1920 1855
2183 1920 1823
2151 1904 1823
2119 1904 1791
2119 1892 1795
2119 1892 1779
2103 1860 1779
2103 1860 1779
2071 1827 1747
2072 1831 1750
2039 1812 1715
2040 1815 1718
2040 1815 1718
2023 1783 1686
2023 1783 1686
1991 1783 1686
1991 1750 1670
1991 1750 1670
1991 1750 1670
1959 1734 1670
1959 1734 1654
1943 1702 1654
1943 1702 1638
1943 1702 1638
1943 1702 1638
1943 1667 1635
1927 1667 1603
1927 1667 1603
1927 1635 1571
1926 1632 1567
1926 1632 1567
1926 1632 1567
1926 1629 1564
1926 1611 1545
1926 1608 1542
1926 1608 1542
1925 1586 1504
1925 1583 1501
1924 1578 1495
1940 1575 1492
1939 1570 1486
1939 1567 1483
1954 1558 1474
1953 1553 1468
1985 1563 1462
2032 1557 1487
2095 1592 1489
2175 1638 1550
2286 1693 1574
1821 3088 1080
2060 2941 1255
2603 1968 1771
2730 2051 1852
2841 2122 1922
2920 2203 1958
2965 2256 2024
3028 2292 2030
3077 2315 2097
3108 2336 2088
3139 2342 2107
3153 2372 2108
3184 2377 2127
3201 2386 2136
3232 2392 2155
3231 2416 2165
3262 2417 2150
3261 2422 2169
3295 2469 2203
3294 2460 2193
3308 2460 2206
3325 2484 2216
3341 2503 2235
3356 2488 2248
3371 2517 2248
3386 2521 2252
3388 2536 2267
3403 2531 2262
3419 2526 2285
3432 2521 2278
3435 2541 2299
3449 2531 2289
3467 2574 2319
3465 2559 2317
3482 2564 2322
3482 2583 2341
3498 2607 2336
3513 2616 2345
3515 2631 2361
3531 2646 2389
3529 2630 2373
3546 2660 2389
3562 2640 2397
3562 2669 2397
3561 2659 2400
3561 2673 2400
3577 2687 2428
3578 2703 2445
3577 2701 2442
3595 2728 2470
3595 2737 2479
3610 2731 2473
3611 2737 2507
3612 2762 2518
3627 2756 2513
3628 2776 2532
3628 2782 2552
3643 2791 2547
3643 2791 2547
3662 2832 2589
3662 2832 2589
3662 2827 2584
3660 2830 2601
3680 2869 2641
3679 2872 2644
3679 2867 2638
3680 2878 2650
3697 2894 2667
3697 2889 2662
3697 2909 2667
3699 2925 2700
3697 2909 2682
3699 2940 2700
3717 2957 2732
3716 2951 2726
3716 2966 2726
3716 2961 2735
3720 3000 2777
3718 2998 2759
3735 3009 2771
3737 3026 2803
3737 3032 2809
3736 3020 2797
3755 3048 2827
3755 3043 2821
3756 3069 2863
3753 3047 2839
3757 3080 2876
3758 3086 2882
3757 3080 2876
3758 3107 2903
3758 3107 2903
3758 3122 2903
3758 3122 2903
3776 3130 2927
3778 3141 2939
3776 3130 2927
3776 3139 2936
3778 3158 2957
3780 3175 2975
3779 3169 2969
3781 3202 2987
3782 3208 2994
3781 3196 2981
3782 3214 3000
3782 3214 3000
3782 3214 3000
3783 3225 3012
3781 3202 2987
3784 3231 3018
3786 3248 3036
3783 3225 3012
3785 3236 3024
3784 3231 3018
3786 3248 3036
3785 3236 3024
3785 3236 3024
3788 3265 3055
3786 3248 3036
3786 3232 3036
3786 3238 3042
3786 3222 3027
3786 3216 3021
3771 3243 3033
3771 3243 3033
3772 3249 3039
3772 3255 3045
3773 3245 3051
3773 3234 3041
3773 3234 3041
3773 3228 3035
3773 3218 3009
3758 3224 3015
3756 3207 2997
3757 3213 3003
3757 3218 2993
3741 3218 2993
3742 3229 2989
3741 3202 2977
3741 3202 2977
3741 3202 2961
3726 3197 2973
3726 3197 2957
3726 3176 2951
3726 3181 2957
3726 3165 2957
3709 3154 2945
3710 3165 2941
3710 3160 2903
3694 3149 2909
3694 3144 2887
3694 3133 2893
3678 3133 2877
3678 3112 2871
3662 3112 2855
3661 3083 2826
3661 3083 2826
3646 3069 2813
3645 3067 2810
3645 3051 2794
3629 3051 2778
3613 3035 2762
3613 3035 2762
3613 3035 2762
3597 3019 2746
3597 3003 2746
3597 3003 2714
3597 3003 2714
3597 2987 2714
3597 2971 2698
3597 2971 2698
3597 2987 2714
3597 3003 2714
3597 3003 2714
3597 3003 2746
3597 3019 2746
3597 3003 2746
3613 3035 2762
3613 3019 2762
3613 3035 2762
3629 3051 2794
3629 3051 2794
3645 3067 2810
3645 3099 2826
3645 3099 2826
3661 3115 2858
3661 3131 2875
3677 3147 2891
3694 3165 2893
3694 3165 2909
3710 3181 2941
3710 3197 2957
3726 3213 2957
3727 3231 2975
3743 3231 2991
3744 3250 3011
3761 3268 3029
3777 3284 3061
3778 3318 3080
3796 3339 3102
3796 3356 3119
3813 3358 3139
3815 3378 3160
3831 3397 3179
3833 3401 3184
3834 3419 3203
3850 3421 3222
3852 3442 3244
3868 3460 3262
3870 3479 3282
3885 3480 3299
3887 3483 3319
3888 3517 3338
3889 3534 3341
3904 3535 3343
3904 3551 3359
3905 3552 3375
3921 3570 3380
3921 3573 3397
3921 3587 3412
3922 3588 3413
3922 3590 3416
3922 3590 3416
3923 3592 3419
3923 3592 3419
3938 3594 3436
3939 3595 3438
3938 3593 3435
3924 3595 3423
3924 3593 3420
3924 3595 3423
3924 3595 3423
3924 3593 3420
3923 3578 3404
3922 3575 3386
3922 3560 3386
3907 3558 3368
3906 3540 3349
3904 3522 3344
3888 3518 3340
3887 3500 3320
3885 3479 3297
3884 3475 3277
3867 3456 3257
3866 3437 3237
3848 3416 3230
3847 3412 3210
3829 3391 3172
3828 3373 3168
3812 3370 3149
3795 3351 3130
3794 3334 3096
3793 3333 3094
3777 3284 3061
3776 3266 3027
3760 3249 3009
3743 3231 2991
3726 3229 2973
3726 3213 2957
3710 3197 2957
3710 3180 2939
3694 3165 2909
3693 3164 2891
3661 3147 2875
3662 3117 2861
3646 3101 2829
3646 3101 2829
3631 3087 2815
3616 3073 2801
3615 3055 2799
3615 3023 2767
3599 3023 2751
3599 3023 2751
3599 3007 2751
3599 3007 2719
3584 2993 2721
3584 2993 2721
3583 2975 2703
3568 2977 2705
3568 2977 2705
3569 2979 2708
3568 2977 2689
3569 2974 2686
3569 2979 2708
3584 2974 2702
3586 2997 2710
3600 2990 2718
3601 3011 2724
3602 3013 2758
3602 3026 2755
3617 3024 2768
3617 3034 2763
3618 3042 2771
3635 3059 2789
3636 3066 2813
3651 3075 2821
3651 3075 2821
3668 3098 2844
3667 3109 2870
3667 3124 2870
3682 3108 2869
3683 3140 2902
3700 3158 2904
3699 3143 2905
3700 3175 2922
3716 3170 2948
3715 3164 2942
3715 3164 2958
3717 3177 2972
3732 3182 2960
3731 3176 2954
3733 3205 2984
3733 3195 2974
3746 3198 2961
3747 3204 2982
3748 3209 2988
3745 3203 2980
3747 3219 2997
3746 3214 2992
3763 3216 3009
3762 3210 3003
3762 3205 2998
3761 3199 2992
3779 3233 3042
3777 3215 3023
3778 3222 3030
3778 3227 3036
3777 3215 3023
3775 3193 2999
3775 3214 3020
3774 3227 3018
3774 3218 3008
3774 3227 3018
3774 3218 3008
3772 3199 2988
3772 3205 2994
3773 3210 3000
3772 3209 2998
3770 3186 2974
3771 3198 2986
3769 3181 2968
3768 3174 2960
3783 3168 2969
3767 3172 2958
3767 3172 2958
3766 3155 2940
3765 3149 2934
3765 3144 2928
3765 3144 2928
3764 3138 2922
3764 3142 2926
3763 3116 2914
3761 3099 2896
3762 3090 2887
3761 3084 2881
3760 3077 2873
3760 3082 2879
3757 3058 2853
3757 3049 2843
3757 3052 2847
3741 3038 2817
3739 3015 2793
3737 3008 2785
3736 2997 2773
3721 2997 2759
3720 2991 2753
3721 2997 2759
3719 2965 2741
3718 2963 2739
3716 2941 2700
3716 2932 2706
3715 2924 2698
3699 2924 2698
3697 2908 2666
3696 2882 2654
3697 2893 2666
3696 2882 2640
3695 2857 2628
3678 2846 2617
3679 2860 2632
3678 2844 2614
3678 2844 2614
3678 2844 2614
3660 2813 2582
3660 2816 2586
3659 2793 2549
3660 2804 2560
3642 2771 2526
3641 2760 2515
3625 2760 2515
3624 2741 2495
3623 2730 2484
3609 2732 2501
3610 2737 2493
3609 2713 2481
3592 2702 2442
3577 2693 2448
3575 2677 2417
3576 2674 2429
3561 2679 2420
3560 2659 2415
3559 2654 2381
3560 2645 2387
3543 2621 2376
3528 2626 2368
3527 2607 2362
3527 2607 2348
3512 2598 2326
3497 2589 2332
3481 2589 2318
3480 2556 2312
3465 2552 2309
3449 2542 2299
3433 2528 2271
3434 2523 2281
3417 2514 2271
3402 2509 2268
3387 2519 2278
3385 2507 2237
3369 2497 2242
3355 2507 2238
3340 2488 2220
3323 2464 2210
3308 2460 2206
3292 2465 2211
3277 2455 2188
3262 2431 2193
3245 2407 2169
3230 2407 2155
3215 2383 2146
3184 2377 2155
3152 2334 2098
3104 2315 2079
3057 2280 2060
2978 2237 2032
2915 2187 1969
2789 2082 1881
2661 1994 1808
2534 1862 1693
2359 1763 1609
2216 1648 1526
2104 1593 1485
2010 1528 1422
1929 1478 1386
1882 1483 1392
1851 1477 1372
1851 1477 1372
1851 1479 1405
1836 1485 1411
1836 1488 1414
1837 1511 1423
1837 1508 1420
1838 1517 1459
1853 1511 1453
1854 1535 1462
1854 1532 1474
1855 1546 1489
1855 1546 1489
1887 1558 1517
1887 1564 1523
1888 1603 1533
1920 1600 1560
1920 1634 1563
1921 1637 1566
1937 1656 1585
1937 1640 1585
1937 1674 1588
1938 1680 1595
1953 1674 1604
1954 1696 1610
1970 1714 1629
1986 1699 1629
1986 1733 1633
2019 1739 1671
2018 1761 1660
2035 1786 1702
2035 1789 1705
2069 1802 1751
2068 1827 1744
2100 1862 1763
2100 1855 1756
2116 1878 1794
2117 1888 1805
2149 1900 1833
2149 1900 1833
2182 1935 1853
2213 1964 1881
2214 1967 1885
2230 1983 1916
2230 1990 1924
2230 2018 1920
2262 2018 1936
2295 2054 1956
2296 2080 1967
2295 2069 1988
2327 2105 1992
2344 2144 2031
2344 2144 2047
2375 2169 2071
2408 2196 2115
2424 2224 2111
2423 2213 2115
2456 2256 2127
2456 2256 2159
2472 2256 2159
2504 2288 2191
2521 2320 2223
2537 2357 2244
2553 2336 2239
2569 2389 2276
2585 2384 2303
2585 2400 2303
2601 2389 2308
2617 2421 2308
2617 2421 2308
2634 2457 2345
2633 2485 2356
2665 2501 2388
2682 2505 2393
2682 2537 2425
2698 2537 2425
2698 2553 2441
2730 2553 2441
2746 2585 2473
2762 2601 2489
2762 2601 2489
2762 2601 2521
2794 2634 2537
2810 2634 2537
2810 2650 2569
2826 2650 2569
2826 2666 2585
2858 2698 2585
2875 2698 2618
2874 2709 2628
2891 2714 2634
2891 2730 2634
2907 2730 2634
2907 2762 2634
2939 2778 2666
2955 2778 2682
2955 2794 2698
2955 2826 2698
2955 2826 2730
2971 2842 2730
2971 2842 2730
2987 2858 2746
2987 2858 2762
3003 2875 2762
3003 2875 2762
3019 2907 2794
3019 2907 2794
3019 2907 2810
3051 2923 2810
3051 2923 2826
3051 2923 2826
3067 2923 2826
3067 2923 2858
3067 2923 2858
3083 2939 2858
3083 2939 2875
3083 2939 2875
3083 2939 2875
3083 2955 2875
3099 2955 2875
3099 2955 2891
3099 2971 2891
3115 2971 2907
3115 2971 2907
3115 2987 2907
3131 2987 2939
3131 2987 2939
3131 3019 2939
3131 3019 2939
3147 3019 2939
3147 3019 2939
3147 3019 2955
3147 3019 2955
3147 3035 2955
3147 3035 2955
3147 3035 2955
3164 3035 2955
3164 3035 2955
3164 3051 2955
3164 3051 2955
3180 3051 2971
3180 3067 2971
3180 3067 2971
3180 3067 2971
3180 3067 2971
3196 3067 2987
3196 3067 2987
3196 3083 2987
3196 3083 2987
3196 3083 2987
3196 3083 2987
3196 3083 3003
3212 3099 3003
3212 3099 3003
3212 3099 3003
3212 3099 3019
3228 3115 3019
3228 3115 3019
3228 3115 3019
3228 3115 3019
3244 3131 3051
3244 3131 3051
3244 3131 3051
3244 3131 3051
3244 3131 3051
3244 3131 3051
3244 3131 3051
3260 3147 3067
3260 3147 3067
3260 3147 3067
3260 3147 3067
