PSD files/lut/Deer makeup sticker final.CUBE
#Created by: Adobe Photoshop Export Color Lookup Plugin
TITLE "Deer makeup sticker final.psd"
#LUT size
LUT_3D_SIZE 32
#data domain
DOMAIN_MIN 0.0 0.0 0.0
DOMAIN_MAX 1.0 1.0 1.0
#LUT data points
0.823517 0.799988 0.780396
0.819611 0.796082 0.776459
0.819611 0.796082 0.776459
0.819611 0.796082 0.776459
0.819611 0.796082 0.776459
0.819611 0.796082 0.776459
0.819611 0.796082 0.776459
0.819611 0.796082 0.776459
0.819611 0.796082 0.776459
0.819611 0.796082 0.776459
0.819611 0.796082 0.776459
0.819611 0.796082 0.776459
0.819611 0.796082 0.776459
0.819611 0.796082 0.776459
0.819611 0.796082 0.776459
0.819611 0.796082 0.776459
0.819611 0.796082 0.776459
0.819611 0.796082 0.776459
0.819611 0.796082 0.772552
0.815674 0.796082 0.772552
0.815674 0.796082 0.772552
0.815674 0.792145 0.772552
0.815674 0.792145 0.772552
0.815674 0.792145 0.772552
0.815674 0.792145 0.772552
0.815674 0.792145 0.772552
0.815674 0.792145 0.772552
0.815674 0.792145 0.772552
0.815674 0.792145 0.772552
0.815674 0.792145 0.772552
0.815674 0.792145 0.768616
0.815674 0.792145 0.768616
0.819611 0.796082 0.776459
0.819611 0.796082 0.776459
0.819611 0.796082 0.776459
0.819611 0.796082 0.776459
0.819611 0.796082 0.772552
0.819611 0.796082 0.772552
0.819611 0.796082 0.772552
0.815674 0.792145 0.772552
0.815674 0.792145 0.772552
0.815674 0.792145 0.772552
0.819611 0.796082 0.772552
0.819611 0.796082 0.772552
0.819611 0.796082 0.772552
0.819611 0.796082 0.772552
0.819611 0.796082 0.772552
0.819611 0.796082 0.772552
0.819611 0.796082 0.772552
0.815674 0.792145 0.772552
0.815674 0.792145 0.772552
0.815674 0.792145 0.772552
0.815674 0.792145 0.768616
0.815674 0.792145 0.768616
0.815674 0.792145 0.768616
0.815674 0.792145 0.768616
0.815674 0.792145 0.768616
0.815674 0.792145 0.768616
0.815674 0.792145 0.768616
0.815674 0.792145 0.768616
0.815674 0.792145 0.768616
0.815674 0.792145 0.768616
0.815674 0.792145 0.768616
0.815674 0.792145 0.764709
0.815674 0.792145 0.768616
0.815674 0.792145 0.764709
0.815674 0.792145 0.764709
0.815674 0.792145 0.764709
0.815674 0.792145 0.764709
0.815674 0.788239 0.764709
0.815674 0.788239 0.764709
0.815674 0.788239 0.764709
0.815674 0.792145 0.764709
0.815674 0.792145 0.764709
0.815674 0.792145 0.764709
0.815674 0.792145 0.764709
0.815674 0.792145 0.764709
0.815674 0.792145 0.764709
0.815674 0.792145 0.764709
0.811768 0.788239 0.764709
0.811768 0.788239 0.764709
0.811768 0.788239 0.764709
0.811768 0.788239 0.764709
0.811768 0.788239 0.764709
0.811768 0.788239 0.760773
0.811768 0.788239 0.760773
0.811768 0.788239 0.760773
0.811768 0.788239 0.760773
0.811768 0.788239 0.764709
0.811768 0.788239 0.764709
0.811768 0.788239 0.764709
0.811768 0.788239 0.764709
0.811768 0.788239 0.764709
0.811768 0.788239 0.764709
0.811768 0.788239 0.764709
0.811768 0.788239 0.760773
0.807831 0.784302 0.756866
0.807831 0.784302 0.756866
0.807831 0.784302 0.756866
0.807831 0.784302 0.756866
0.807831 0.784302 0.756866
0.807831 0.780396 0.756866
0.807831 0.780396 0.756866
0.803925 0.780396 0.756866
0.803925 0.780396 0.756866
0.803925 0.780396 0.756866
0.803925 0.780396 0.752930
0.803925 0.780396 0.752930
0.803925 0.780396 0.752930
0.803925 0.780396 0.756866
0.803925 0.780396 0.756866
0.803925 0.780396 0.752930
0.803925 0.776459 0.752930
0.803925 0.776459 0.752930
0.803925 0.776459 0.752930
0.803925 0.776459 0.752930
0.799988 0.776459 0.752930
0.799988 0.776459 0.752930
0.799988 0.776459 0.752930
0.799988 0.776459 0.752930
0.799988 0.776459 0.752930
0.799988 0.776459 0.752930
0.799988 0.776459 0.752930
0.803925 0.776459 0.752930
0.803925 0.776459 0.752930
0.803925 0.776459 0.752930
0.803925 0.776459 0.752930
0.803925 0.776459 0.752930
0.796082 0.764709 0.733337
0.796082 0.764709 0.737244
0.796082 0.764709 0.737244
0.796082 0.764709 0.733337
0.792145 0.764709 0.733337
0.792145 0.764709 0.733337
0.792145 0.764709 0.733337
0.792145 0.764709 0.733337
0.792145 0.760773 0.733337
0.792145 0.760773 0.733337
0.792145 0.760773 0.733337
0.792145 0.760773 0.733337
0.792145 0.760773 0.729401
0.792145 0.760773 0.729401
0.788239 0.756866 0.729401
0.788239 0.756866 0.729401
0.788239 0.756866 0.729401
0.788239 0.756866 0.729401
0.788239 0.756866 0.729401
0.788239 0.756866 0.729401
0.788239 0.756866 0.725494
0.788239 0.756866 0.725494
0.788239 0.752930 0.725494
0.788239 0.756866 0.725494
0.788239 0.756866 0.725494
0.788239 0.756866 0.725494
0.788239 0.756866 0.725494
0.788239 0.756866 0.725494
0.788239 0.756866 0.725494
0.788239 0.756866 0.725494
0.788239 0.756866 0.725494
0.788239 0.752930 0.725494
0.760773 0.721558 0.698029
0.760773 0.721558 0.698029
0.760773 0.721558 0.698029
0.760773 0.721558 0.698029
0.760773 0.721558 0.698029
0.760773 0.721558 0.698029
0.756866 0.717651 0.690186
0.756866 0.717651 0.690186
0.756866 0.717651 0.690186
0.756866 0.717651 0.690186
0.756866 0.721558 0.698029
0.756866 0.721558 0.698029
0.756866 0.721558 0.698029
0.756866 0.717651 0.698029
0.756866 0.717651 0.690186
0.756866 0.717651 0.690186
0.756866 0.717651 0.690186
0.756866 0.717651 0.690186
0.756866 0.717651 0.690186
0.756866 0.717651 0.690186
0.756866 0.717651 0.690186
0.752930 0.713715 0.690186
0.752930 0.713715 0.686279
0.752930 0.713715 0.686279
0.752930 0.713715 0.686279
0.752930 0.713715 0.686279
0.752930 0.713715 0.686279
0.749023 0.713715 0.686279
0.749023 0.713715 0.686279
0.749023 0.713715 0.686279
0.749023 0.713715 0.686279
0.749023 0.713715 0.686279
0.682251 0.638092 0.606628
0.686279 0.643127 0.615692
0.686279 0.643127 0.615692
0.682129 0.636993 0.605438
0.682129 0.636993 0.605438
0.682251 0.638092 0.606628
0.682343 0.639221 0.607849
0.682343 0.639221 0.607849
0.682343 0.639221 0.607849
0.682343 0.639221 0.607849
0.682251 0.638092 0.606628
0.682251 0.630280 0.606628
0.682343 0.631378 0.607849
0.682343 0.631378 0.607849
0.682343 0.631378 0.607849
0.682251 0.630280 0.606628
0.682343 0.631378 0.607849
0.682343 0.631378 0.607849
0.682343 0.631378 0.607849
0.682343 0.631378 0.607849
0.682343 0.631378 0.607849
0.682343 0.631378 0.607849
0.682251 0.630280 0.606628
0.682343 0.631378 0.607849
0.682251 0.630280 0.606628
0.682251 0.630280 0.606628
0.682343 0.631378 0.607849
0.682343 0.631378 0.607849
0.682343 0.631378 0.607849
0.682343 0.631378 0.607849
0.682343 0.631378 0.603912
0.682251 0.630280 0.602722
0.572174 0.514038 0.486328
0.572357 0.515839 0.488251
0.572174 0.514038 0.486328
0.572174 0.514038 0.486328
0.572174 0.514038 0.486328
0.572113 0.513123 0.485352
0.572266 0.514923 0.487274
0.572113 0.520905 0.485352
0.580109 0.518860 0.487274
0.580109 0.518860 0.487274
0.580017 0.521820 0.494080
0.572266 0.522736 0.495087
0.580017 0.521820 0.494080
0.572266 0.522736 0.495087
0.572266 0.522736 0.487274
0.580109 0.522736 0.495087
0.580292 0.524567 0.497040
0.580292 0.524567 0.497040
0.580292 0.524567 0.497040
0.580109 0.522736 0.495087
0.580109 0.522736 0.495087
0.580017 0.521820 0.494080
0.580017 0.521820 0.494080
0.580292 0.524567 0.497040
0.580292 0.524567 0.497040
0.580200 0.523651 0.496063
0.580109 0.518860 0.487274
0.580017 0.517944 0.486328
0.580109 0.522736 0.495087
0.580200 0.523651 0.496063
0.580017 0.521820 0.494080
0.580292 0.524567 0.497040
0.474518 0.415680 0.403931
0.478424 0.423523 0.403931
0.478424 0.423523 0.403931
0.478424 0.423523 0.403931
0.478424 0.423523 0.403931
0.478424 0.423523 0.403931
0.478424 0.423523 0.403931
0.478424 0.423523 0.403931
0.478424 0.423523 0.407837
0.478424 0.427460 0.407837
0.478424 0.427460 0.407837
0.486267 0.427460 0.407837
0.486267 0.427460 0.407837
0.486267 0.427460 0.407837
0.486267 0.427460 0.407837
0.486267 0.427460 0.407837
0.486267 0.427460 0.407837
0.486267 0.427460 0.407837
0.486267 0.427460 0.407837
0.486267 0.427460 0.407837
0.486267 0.427460 0.407837
0.486267 0.427460 0.407837
0.486267 0.427460 0.407837
0.486267 0.427460 0.407837
0.486267 0.427460 0.407837
0.478424 0.427460 0.407837
0.478424 0.427460 0.407837
0.478424 0.427460 0.407837
0.478424 0.427460 0.407837
0.478424 0.427460 0.407837
0.478424 0.427460 0.407837
0.478424 0.427460 0.407837
0.693726 0.518158 0.469330
0.689850 0.510864 0.462128
0.681946 0.509888 0.461121
0.674377 0.508148 0.459503
0.666473 0.499908 0.451294
0.662567 0.499908 0.451294
0.658661 0.492615 0.444092
0.650970 0.489868 0.441406
0.643097 0.485321 0.436859
0.635376 0.478912 0.430573
0.631378 0.470734 0.422424
0.623779 0.465149 0.420593
0.619904 0.461487 0.420593
0.608002 0.445160 0.404358
0.600281 0.442352 0.401611
0.588623 0.435028 0.401611
0.576996 0.428528 0.387970
0.569275 0.421997 0.381531
0.557587 0.425629 0.381531
0.557587 0.407318 0.377899
0.542175 0.408813 0.375885
0.530457 0.401459 0.372223
0.522736 0.394836 0.373016
0.514923 0.391113 0.365692
0.503174 0.386719 0.357605
0.495453 0.380066 0.354736
0.491669 0.374054 0.356262
0.483734 0.368988 0.347443
0.475983 0.369659 0.340820
0.472321 0.368011 0.343018
0.468262 0.362946 0.337860
0.452789 0.356842 0.339294
0.854095 0.636597 0.570465
0.853973 0.635345 0.569153
0.853577 0.631592 0.565247
0.853851 0.634094 0.567871
0.849854 0.632843 0.566559
0.850098 0.635345 0.569153
0.849976 0.627167 0.567871
0.849976 0.627167 0.567871
0.849976 0.627167 0.567871
0.849854 0.622467 0.563141
0.849976 0.623688 0.564453
0.849579 0.619995 0.560577
0.850098 0.621460 0.565735
0.849579 0.616577 0.560577
0.849579 0.616577 0.560577
0.845673 0.619995 0.557220
0.845673 0.619995 0.557220
0.845825 0.621216 0.558502
0.845673 0.616577 0.557220
0.845947 0.619019 0.559784
0.841675 0.611908 0.552551
0.841675 0.611908 0.552551
0.841949 0.614319 0.555084
0.837799 0.611908 0.552551
0.837555 0.609467 0.549988
0.837921 0.613129 0.553802
0.837677 0.607269 0.547913
0.837677 0.603821 0.547913
0.837799 0.605011 0.549194
0.838074 0.607422 0.551727
0.834320 0.612091 0.552979
0.833679 0.606079 0.543274
0.902802 0.705414 0.649994
0.902374 0.701385 0.645691
0.903076 0.708099 0.652863
0.902374 0.701385 0.645691
0.902527 0.702728 0.647125
0.902222 0.700043 0.644257
0.902527 0.702728 0.647125
0.902374 0.701385 0.645691
0.902527 0.702728 0.647125
0.902222 0.700043 0.644257
0.898376 0.700043 0.644257
0.898499 0.701385 0.645691
0.898071 0.697357 0.641388
0.898376 0.700043 0.644257
0.898499 0.701385 0.645691
0.897949 0.696014 0.639954
0.898376 0.700043 0.644257
0.897949 0.696014 0.639954
0.897797 0.694672 0.638550
0.897949 0.696014 0.639954
0.898071 0.693817 0.637909
0.898224 0.695160 0.639343
0.898224 0.695160 0.639343
0.897675 0.686310 0.633636
0.898224 0.691620 0.639343
0.894165 0.690308 0.630951
0.893890 0.687622 0.628143
0.893890 0.687622 0.628143
0.894318 0.691620 0.632355
0.894470 0.689392 0.630249
0.894165 0.686737 0.627441
0.890442 0.684509 0.625366
0.922913 0.773987 0.725037
0.922791 0.772614 0.723541
0.922791 0.772614 0.723541
0.922485 0.769836 0.720581
0.922913 0.773987 0.725037
0.922638 0.771210 0.722046
0.922363 0.768433 0.719086
0.922638 0.771210 0.722046
0.922638 0.771210 0.722046
0.922791 0.768829 0.719818
0.923065 0.771606 0.722778
0.922211 0.763306 0.713867
0.922485 0.767029 0.717804
0.922058 0.762878 0.713348
0.922485 0.767029 0.717804
0.922485 0.767029 0.717804
0.922211 0.760468 0.711090
0.918579 0.763245 0.714050
0.918884 0.765991 0.717010
0.918457 0.761871 0.712555
0.918182 0.759094 0.709625
0.918579 0.759460 0.706512
0.918304 0.756714 0.703613
0.918182 0.755371 0.702148
0.918732 0.760834 0.704254
0.918030 0.750214 0.696960
0.918304 0.752960 0.699860
0.914398 0.752960 0.696106
0.914093 0.746490 0.693207
0.914246 0.747833 0.690948
0.910767 0.751923 0.695251
0.910645 0.746765 0.693817
0.917633 0.787262 0.736267
0.917358 0.784515 0.733337
0.917786 0.788635 0.737732
0.917511 0.785889 0.730927
0.917358 0.784515 0.729462
0.917511 0.785889 0.730927
0.913605 0.781982 0.726990
0.913330 0.779236 0.724091
0.913177 0.777893 0.722656
0.913177 0.774963 0.719727
0.913300 0.776337 0.721161
0.913452 0.773773 0.718689
0.909241 0.771057 0.715820
0.909241 0.767181 0.715820
0.909515 0.769867 0.718689
0.909637 0.771210 0.716217
0.905334 0.767181 0.711945
0.905731 0.767273 0.708405
0.905457 0.764618 0.705566
0.905731 0.763367 0.704468
0.901520 0.756805 0.697784
0.901672 0.758118 0.699188
0.901947 0.756866 0.698029
0.897766 0.750305 0.687439
0.897614 0.741211 0.686066
0.893280 0.741211 0.678101
0.893677 0.741211 0.682190
0.893677 0.737305 0.682190
0.889801 0.737305 0.674408
0.889801 0.733398 0.670471
0.889801 0.729523 0.666595
0.885315 0.724426 0.661285
0.878418 0.737244 0.670593
0.878418 0.733337 0.662750
0.878418 0.725494 0.658813
0.874512 0.717651 0.647064
0.870575 0.709808 0.647064
0.866669 0.705872 0.643127
0.858826 0.694122 0.631378
0.858826 0.690186 0.623535
0.850983 0.686279 0.611755
0.850983 0.678436 0.611755
0.847046 0.674500 0.607849
0.843140 0.670593 0.600006
0.843140 0.666656 0.600006
0.839081 0.665497 0.594879
0.839203 0.658813 0.596069
0.839203 0.654907 0.588226
0.835297 0.658813 0.588226
0.835297 0.654907 0.596069
0.839203 0.658813 0.596069
0.839203 0.658813 0.596069
0.843140 0.666656 0.600006
0.847046 0.666656 0.607849
0.847046 0.674500 0.611755
0.850983 0.678436 0.619598
0.854889 0.686279 0.623535
0.858826 0.690186 0.631378
0.862732 0.698029 0.643127
0.866669 0.701965 0.647064
0.870575 0.701965 0.647064
0.874512 0.717651 0.654907
0.878418 0.721558 0.658813
0.878418 0.725494 0.662750
0.918427 0.797974 0.739624
0.922180 0.797577 0.739136
0.922180 0.797577 0.739136
0.922180 0.801483 0.746948
0.922333 0.801849 0.747406
0.922180 0.801483 0.746948
0.922028 0.801086 0.746490
0.922028 0.801086 0.746490
0.922028 0.805023 0.750397
0.925903 0.805023 0.750397
0.925751 0.804657 0.749939
0.925751 0.804657 0.749939
0.925751 0.804657 0.749939
0.925751 0.804657 0.749939
0.925751 0.808533 0.753815
0.925751 0.808533 0.753815
0.925751 0.808533 0.753815
0.925751 0.808533 0.753815
0.925751 0.808533 0.753815
0.925629 0.812134 0.753387
0.925629 0.812134 0.757324
0.925629 0.812134 0.757324
0.925629 0.812134 0.757324
0.925629 0.812134 0.757324
0.925629 0.812134 0.757324
0.925629 0.812134 0.757324
0.925629 0.812134 0.757324
0.925629 0.812134 0.757324
0.925629 0.812134 0.757324
0.925629 0.812134 0.757324
0.925629 0.808197 0.753387
0.925629 0.808197 0.753387
0.958313 0.878021 0.835907
0.961548 0.877258 0.834869
0.961365 0.876740 0.834198
0.961212 0.876221 0.833496
0.960876 0.875183 0.832123
0.960693 0.874664 0.835083
0.960449 0.873871 0.834076
0.960266 0.873352 0.829742
0.960205 0.873108 0.829407
0.959930 0.872314 0.828369
0.959778 0.871796 0.827667
0.959778 0.871796 0.827667
0.959686 0.871552 0.827332
0.959442 0.870758 0.826294
0.959290 0.870239 0.825623
0.959198 0.869995 0.825287
0.959015 0.869476 0.824585
0.958862 0.868958 0.823914
0.958771 0.868683 0.823578
0.958618 0.868164 0.822876
0.958435 0.867645 0.822205
0.958435 0.867645 0.822205
0.954590 0.863617 0.821838
0.954407 0.863098 0.817352
0.954224 0.858704 0.816650
0.954224 0.858704 0.812836
0.954132 0.858429 0.812469
0.954041 0.854340 0.808289
0.953949 0.850220 0.804077
0.953766 0.845795 0.803314
0.949799 0.845490 0.802948
0.949799 0.841614 0.799103
0.905884 0.776459 0.717651
0.906067 0.776886 0.718170
0.906067 0.776886 0.722046
0.906067 0.776886 0.722046
0.905884 0.776459 0.721558
0.906067 0.776886 0.722046
0.906067 0.776886 0.722046
0.906067 0.776886 0.722046
0.905884 0.780396 0.721558
0.909973 0.780792 0.722046
0.909790 0.780396 0.721558
0.909790 0.780396 0.721558
0.909790 0.780396 0.721558
0.909790 0.780396 0.721558
0.909790 0.784302 0.725494
0.909790 0.784302 0.725494
0.909790 0.784302 0.725494
0.913727 0.784302 0.725494
0.913727 0.788239 0.729401
0.913727 0.788239 0.729401
0.913727 0.788239 0.729401
0.913727 0.788239 0.733337
0.913727 0.788239 0.733337
0.913727 0.788239 0.733337
0.917633 0.788239 0.733337
0.917633 0.788239 0.733337
0.917633 0.788239 0.733337
0.917633 0.788239 0.733337
0.917633 0.788239 0.733337
0.917633 0.788239 0.733337
0.917633 0.788239 0.733337
0.917633 0.788239 0.733337
0.883575 0.742737 0.676636
0.883484 0.743530 0.677368
0.879456 0.738342 0.672180
0.879578 0.731842 0.665710
0.879456 0.726746 0.660522
0.875305 0.720337 0.654053
0.871521 0.709961 0.647614
0.867554 0.706757 0.644348
0.863770 0.700195 0.637817
0.859772 0.691223 0.632690
0.855591 0.686768 0.620361
0.851715 0.678955 0.612549
0.847626 0.673889 0.607483
0.843903 0.667267 0.600891
0.839996 0.659454 0.596954
0.835907 0.656128 0.589630
0.831879 0.647186 0.580658
0.827972 0.639343 0.576752
0.828094 0.636566 0.570099
0.824188 0.640472 0.570099
0.823944 0.634369 0.567841
0.819702 0.629822 0.567108
0.819946 0.628082 0.569366
0.819946 0.628082 0.569366
0.819702 0.625916 0.567108
0.819702 0.625916 0.567108
0.819824 0.630920 0.568237
0.823853 0.635925 0.569366
0.823730 0.638733 0.568237
0.827545 0.637634 0.574921
0.831360 0.643127 0.576477
0.831360 0.643127 0.580383
0.922272 0.785034 0.738098
0.922150 0.783691 0.736664
0.922119 0.780853 0.730042
0.921967 0.780426 0.729523
0.918121 0.780426 0.729523
0.918091 0.781372 0.730499
0.917664 0.778259 0.727112
0.917938 0.780975 0.730011
0.917633 0.779205 0.724274
0.917358 0.777435 0.722321
0.913513 0.773590 0.722321
0.913361 0.772278 0.717072
0.913513 0.773590 0.718536
0.913605 0.772064 0.720886
0.913330 0.769409 0.714203
0.913422 0.771637 0.716553
0.909271 0.765137 0.713684
0.909149 0.763763 0.708435
0.908813 0.758209 0.706482
0.909088 0.760895 0.709351
0.909088 0.760895 0.709351
0.904907 0.759125 0.703583
0.904907 0.755249 0.703583
0.904907 0.755249 0.695953
0.904724 0.751007 0.695404
0.904572 0.749664 0.690155
0.900513 0.744537 0.688751
0.900940 0.748474 0.689148
0.900635 0.742035 0.686371
0.900330 0.740265 0.680603
0.896698 0.739014 0.683380
0.892792 0.735199 0.675690
0.918274 0.752655 0.703003
0.917969 0.750854 0.701019
0.917542 0.746735 0.696625
0.917297 0.744019 0.693695
0.917297 0.744019 0.693695
0.916840 0.740845 0.690216
0.917114 0.743561 0.693146
0.916840 0.740845 0.690216
0.916840 0.741730 0.691132
0.917236 0.745819 0.695557
0.916962 0.743103 0.692596
0.917114 0.743561 0.693146
0.917114 0.740814 0.686829
0.916534 0.735382 0.681030
0.916412 0.734009 0.679565
0.916534 0.736237 0.681915
0.912659 0.736237 0.681915
0.912354 0.733551 0.678986
0.912323 0.734436 0.676300
0.912170 0.729401 0.674835
0.912048 0.728027 0.673401
0.911896 0.726654 0.671936
0.908051 0.726654 0.668335
0.908478 0.727112 0.672668
0.907898 0.721741 0.663361
0.907898 0.721741 0.663361
0.908020 0.720306 0.665619
0.908020 0.720306 0.665619
0.908142 0.721649 0.663483
0.904236 0.718018 0.663483
0.903778 0.714813 0.660004
0.903351 0.710785 0.655701
0.889130 0.674103 0.614136
0.889130 0.674103 0.614136
0.885101 0.672760 0.612701
0.885101 0.672760 0.612701
0.884979 0.671448 0.611328
0.885101 0.672760 0.612701
0.884979 0.667999 0.611328
0.884979 0.667999 0.611328
0.884827 0.666687 0.609924
0.884827 0.666687 0.609924
0.884979 0.667999 0.611328
0.884827 0.666687 0.606537
0.884827 0.666687 0.606537
0.885101 0.669312 0.609344
0.884552 0.660645 0.603760
0.884705 0.661957 0.605164
0.884552 0.660645 0.603760
0.880829 0.661957 0.601776
0.880554 0.659332 0.599030
0.880676 0.657196 0.600403
0.880829 0.658508 0.601776
0.880829 0.658508 0.601776
0.880676 0.657196 0.600403
0.880554 0.655914 0.592316
0.880676 0.653778 0.593658
0.880737 0.655731 0.595703
0.876312 0.650574 0.590240
0.876312 0.650574 0.586884
0.876587 0.649719 0.589600
0.876434 0.648438 0.588257
0.876312 0.647156 0.586884
0.872589 0.648438 0.588257
0.819183 0.612213 0.546539
0.819183 0.605255 0.546539
0.819061 0.604095 0.545288
0.819183 0.605255 0.546539
0.815033 0.602905 0.544037
0.815277 0.605255 0.546539
0.815155 0.604095 0.538483
0.815277 0.605255 0.539703
0.815277 0.601807 0.539703
0.811432 0.601807 0.539703
0.811554 0.602966 0.540924
0.811279 0.600616 0.538483
0.807404 0.597137 0.538483
0.807281 0.595978 0.533844
0.807526 0.598297 0.536285
0.803650 0.598297 0.536285
0.803528 0.593689 0.535065
0.803406 0.592499 0.527039
0.803650 0.594849 0.529449
0.803650 0.587891 0.529449
0.799744 0.587891 0.526031
0.799866 0.589050 0.527222
0.795898 0.584381 0.526031
0.795776 0.583252 0.524841
0.795898 0.584381 0.526031
0.791992 0.584381 0.519196
0.792358 0.584351 0.522766
0.788361 0.583191 0.521576
0.788361 0.583191 0.521576
0.788239 0.575104 0.516968
0.788361 0.576233 0.518158
0.784576 0.573822 0.519318
0.448761 0.370331 0.356262
0.448547 0.368286 0.353973
0.448639 0.368988 0.354736
0.448486 0.367615 0.353241
0.448700 0.369659 0.355499
0.448639 0.368988 0.354736
0.448761 0.370331 0.356262
0.448700 0.369659 0.355499
0.448822 0.371033 0.356995
0.448639 0.368988 0.354736
0.448761 0.370331 0.356262
0.448700 0.369659 0.355499
0.448639 0.368988 0.354736
0.448822 0.371033 0.356995
0.448761 0.370331 0.356262
0.448822 0.371033 0.356995
0.448914 0.375427 0.357758
0.448914 0.375427 0.357758
0.448700 0.373383 0.355499
0.448975 0.376129 0.358521
0.448822 0.374756 0.356995
0.448761 0.374054 0.356262
0.449036 0.376801 0.359283
0.448914 0.375427 0.357758
0.448914 0.375427 0.357758
0.448975 0.372375 0.358521
0.448914 0.371704 0.357758
0.449036 0.376801 0.359283
0.448975 0.376129 0.358521
0.449036 0.376801 0.359283
0.448975 0.376129 0.358521
0.449036 0.376801 0.359283
0.524841 0.464050 0.447662
0.524902 0.464844 0.448578
0.524994 0.465668 0.449493
0.524750 0.463226 0.446777
0.524841 0.464050 0.447662
0.524902 0.464844 0.448578
0.524841 0.464050 0.447662
0.524841 0.464050 0.447662
0.524841 0.464050 0.447662
0.528778 0.467926 0.451538
0.528839 0.468750 0.452454
0.528778 0.467926 0.451538
0.528778 0.475647 0.451538
0.532837 0.473450 0.453369
0.532745 0.472595 0.452454
0.532837 0.473450 0.453369
0.532684 0.471771 0.451538
0.532837 0.473450 0.453369
0.532684 0.471771 0.451538
0.532501 0.470123 0.449738
0.532745 0.472595 0.452454
0.532745 0.472595 0.452454
0.532928 0.474274 0.454285
0.532928 0.474274 0.454285
0.532928 0.474274 0.454285
0.532990 0.475098 0.455200
0.532928 0.474274 0.454285
0.532928 0.474274 0.454285
0.532745 0.472595 0.452454
0.532990 0.475098 0.455200
0.536774 0.485107 0.461121
0.536774 0.485107 0.461121
0.643036 0.606781 0.575317
0.643036 0.606781 0.575317
0.643036 0.598969 0.575317
0.643036 0.598969 0.571411
0.642822 0.596863 0.569122
0.643127 0.600006 0.572540
0.643036 0.598969 0.571411
0.643127 0.600006 0.572540
0.643036 0.598969 0.571411
0.643127 0.600006 0.572540
0.643036 0.598969 0.575317
0.643127 0.600006 0.572540
0.643127 0.600006 0.572540
0.642944 0.597931 0.570282
0.643036 0.598969 0.571411
0.643127 0.600006 0.572540
0.643036 0.598969 0.571411
0.643127 0.600006 0.572540
0.643036 0.598969 0.571411
0.643036 0.598969 0.571411
0.643036 0.598969 0.571411
0.643036 0.598969 0.571411
0.643127 0.600006 0.572540
0.642944 0.597931 0.570282
0.643036 0.598969 0.571411
0.643127 0.600006 0.572540
0.643036 0.598969 0.575317
0.643036 0.598969 0.575317
0.643127 0.600006 0.576477
0.642944 0.597931 0.570282
0.643127 0.600006 0.572540
0.643127 0.600006 0.572540
0.733337 0.701965 0.674500
0.733337 0.698029 0.674500
0.729401 0.698029 0.674500
0.729401 0.698029 0.674500
0.729401 0.698029 0.674500
0.729401 0.698029 0.670593
0.729401 0.698029 0.670593
0.729401 0.698029 0.670593
0.729401 0.698029 0.670593
0.729401 0.698029 0.670593
0.729401 0.698029 0.670593
0.729401 0.698029 0.670593
0.729401 0.698029 0.670593
0.729401 0.694122 0.670593
0.725494 0.694122 0.670593
0.725494 0.694122 0.670593
0.725494 0.694122 0.670593
0.725494 0.694122 0.670593
0.729401 0.698029 0.670593
0.729401 0.698029 0.670593
0.725494 0.694122 0.670593
0.725494 0.694122 0.670593
0.725494 0.694122 0.670593
0.725494 0.694122 0.666656
0.725494 0.694122 0.666656
0.725494 0.694122 0.666656
0.725494 0.690186 0.666656
0.721558 0.690186 0.666656
0.721558 0.690186 0.666656
0.721558 0.690186 0.666656
0.721558 0.690186 0.666656
0.721558 0.690186 0.666656
0.768616 0.741180 0.721558
0.768616 0.741180 0.721558
0.768616 0.741180 0.721558
0.768616 0.741180 0.721558
0.768616 0.741180 0.721558
0.768616 0.741180 0.721558
0.768616 0.737244 0.721558
0.768616 0.737244 0.721558
0.768616 0.737244 0.717651
0.768616 0.737244 0.717651
0.768616 0.737244 0.717651
0.764709 0.737244 0.717651
0.764709 0.737244 0.717651
0.764709 0.737244 0.717651
0.764709 0.737244 0.717651
0.764709 0.737244 0.717651
0.764709 0.737244 0.717651
