PSD files/lut/makeup template 1200.CUBE
#Created by: Adobe Photoshop Export Color Lookup Plugin
TITLE "makeup template 1200.psd"
#LUT size
LUT_3D_SIZE 32
#data domain
DOMAIN_MIN 0.0 0.0 0.0
DOMAIN_MAX 1.0 1.0 1.0
#LUT data points
0.726501 0.721832 0.727692
0.726501 0.721832 0.727692
0.726501 0.721832 0.727692
0.726501 0.721832 0.727692
0.726501 0.721832 0.727692
0.726501 0.721832 0.727692
0.726501 0.721832 0.727692
0.726501 0.721832 0.727692
0.726501 0.721832 0.727692
0.726501 0.721832 0.727692
0.726501 0.721832 0.727692
0.726501 0.721832 0.727692
0.726501 0.721832 0.727692
0.726501 0.721832 0.727692
0.726501 0.721832 0.727692
0.726501 0.721832 0.727692
0.726501 0.721832 0.727692
0.726501 0.721832 0.727692
0.726501 0.721832 0.727692
0.726501 0.721832 0.727692
0.726501 0.721832 0.727692
0.726501 0.721832 0.727692
0.726501 0.721832 0.727692
0.726501 0.721832 0.727692
0.726501 0.721832 0.727692
0.726501 0.721832 0.727692
0.726501 0.721832 0.727692
0.726501 0.721832 0.727692
0.726501 0.721832 0.727692
0.726501 0.721832 0.727692
0.726501 0.721832 0.727692
0.726501 0.721832 0.727692
0.726501 0.721832 0.727692
0.726501 0.721832 0.727692
0.726501 0.721832 0.727692
0.726501 0.721832 0.727692
0.726501 0.721832 0.727692
0.726501 0.721832 0.727692
0.726501 0.721832 0.727692
0.726501 0.721832 0.727692
0.726501 0.721832 0.727692
0.726501 0.721832 0.727692
0.726501 0.721832 0.727692
0.726501 0.721832 0.727692
0.726501 0.721832 0.727692
0.726501 0.721832 0.727692
0.726501 0.721832 0.727692
0.726501 0.721832 0.727692
0.726501 0.721832 0.727692
0.726501 0.721832 0.727692
0.726501 0.721832 0.727692
0.726501 0.721832 0.727692
0.726501 0.721832 0.727692
0.726501 0.721832 0.727692
0.726501 0.721832 0.727692
0.726501 0.721832 0.727692
0.726501 0.721832 0.727692
0.726501 0.721832 0.727692
0.726501 0.721832 0.727692
0.726501 0.721832 0.727692
0.726501 0.721832 0.727692
0.726501 0.721832 0.727692
0.726501 0.721832 0.727692
0.726501 0.721832 0.727692
0.726501 0.721832 0.727692
0.726501 0.721832 0.727692
0.726501 0.721832 0.727692
0.726501 0.721832 0.727692
0.726501 0.721832 0.727692
0.726501 0.721832 0.727692
0.726501 0.721832 0.727692
0.726501 0.721832 0.727692
0.726501 0.721832 0.727692
0.726501 0.721832 0.727692
0.726501 0.721832 0.727692
0.726501 0.721832 0.727692
0.726501 0.721832 0.727692
0.726501 0.721832 0.727692
0.726501 0.721832 0.727692
0.726501 0.721832 0.727692
0.726501 0.721832 0.727692
0.726501 0.721832 0.727692
0.726501 0.721832 0.727692
0.726501 0.721832 0.727692
0.726501 0.721832 0.727692
0.726501 0.721832 0.727692
0.726501 0.721832 0.727692
0.726501 0.721832 0.727692
0.726501 0.721832 0.727692
0.726501 0.721832 0.727692
0.726501 0.721832 0.727692
0.726501 0.721832 0.727692
0.726501 0.721832 0.727692
0.726501 0.721832 0.727692
0.726501 0.721832 0.727692
0.726501 0.721832 0.727692
0.726501 0.721832 0.727692
0.726501 0.721832 0.727692
0.726501 0.721832 0.727692
0.726501 0.721832 0.727692
0.726501 0.721832 0.727692
0.726501 0.721832 0.727692
0.726501 0.721832 0.727692
0.726501 0.721832 0.727692
0.726501 0.721832 0.727692
0.726501 0.721832 0.727692
0.726501 0.721832 0.727692
0.726501 0.721832 0.727692
0.726501 0.721832 0.727692
0.726501 0.721832 0.727692
0.726501 0.721832 0.727692
0.726501 0.721832 0.727692
0.726501 0.721832 0.727692
0.726501 0.721832 0.727692
0.726501 0.721832 0.727692
0.726501 0.721832 0.727692
0.726501 0.721832 0.727692
0.726501 0.721832 0.727692
0.726501 0.721832 0.727692
0.726501 0.721832 0.727692
0.726501 0.721832 0.727692
0.726501 0.721832 0.727692
0.726501 0.721832 0.727692
0.726501 0.721832 0.727692
0.726501 0.721832 0.727692
0.726501 0.721832 0.727692
0.726501 0.721832 0.727692
0.726501 0.721832 0.727692
0.726501 0.721832 0.727692
0.726501 0.721832 0.727692
0.726501 0.721832 0.727692
0.726501 0.721832 0.727692
0.726501 0.721832 0.727692
0.726501 0.721832 0.727692
0.726501 0.721832 0.727692
0.726501 0.721832 0.727692
0.726501 0.721832 0.727692
0.726501 0.721832 0.727692
0.726501 0.721832 0.727692
0.726501 0.721832 0.727692
0.726501 0.721832 0.727692
0.726501 0.721832 0.727692
0.726501 0.721832 0.727692
0.726501 0.721832 0.727692
0.726501 0.721832 0.727692
0.726501 0.721832 0.727692
0.726501 0.721832 0.727692
0.726501 0.721832 0.727692
0.726501 0.721832 0.727692
0.726501 0.721832 0.727692
0.726501 0.721832 0.727692
0.726501 0.721832 0.727692
0.726501 0.721832 0.727692
0.726501 0.721832 0.727692
0.726501 0.721832 0.727692
0.726501 0.721832 0.727692
0.726501 0.721832 0.727692
0.726501 0.721832 0.727692
0.726501 0.721832 0.727692
0.726501 0.721832 0.727692
0.726501 0.721832 0.727692
0.726501 0.721832 0.727692
0.726501 0.721832 0.727692
0.726501 0.721832 0.727692
0.726501 0.721832 0.727692
0.726501 0.721832 0.727692
0.726501 0.721832 0.727692
0.726501 0.721832 0.727692
0.726501 0.721832 0.727692
0.726501 0.721832 0.727692
0.726501 0.721832 0.727692
0.726501 0.721832 0.727692
0.726501 0.721832 0.727692
0.726501 0.721832 0.727692
0.726501 0.721832 0.727692
0.726501 0.721832 0.727692
0.726501 0.721832 0.727692
0.726501 0.721832 0.727692
0.726501 0.721832 0.727692
0.726501 0.721832 0.727692
0.726501 0.721832 0.727692
0.726501 0.721832 0.727692
0.726501 0.721832 0.727692
0.726501 0.721832 0.727692
0.726501 0.721832 0.727692
0.726501 0.721832 0.727692
0.726501 0.721832 0.727692
0.726501 0.721832 0.727692
0.726501 0.721832 0.727692
0.726501 0.721832 0.727692
0.726501 0.721832 0.727692
0.726501 0.721832 0.727692
0.726501 0.721832 0.727692
0.726501 0.721832 0.727692
0.726501 0.721832 0.727692
0.726501 0.721832 0.727692
0.726501 0.721832 0.727692
0.726501 0.721832 0.727692
0.726501 0.721832 0.727692
0.726501 0.721832 0.727692
0.726501 0.721832 0.727692
0.726501 0.721832 0.727692
0.726501 0.721832 0.727692
0.726501 0.721832 0.727692
0.726501 0.721832 0.727692
0.726501 0.721832 0.727692
0.726501 0.721832 0.727692
0.726501 0.721832 0.727692
0.726501 0.721832 0.727692
0.726501 0.721832 0.727692
0.726501 0.721832 0.727692
0.726501 0.721832 0.727692
0.726501 0.721832 0.727692
0.726501 0.721832 0.727692
0.726501 0.721832 0.727692
0.726501 0.721832 0.727692
0.726501 0.721832 0.727692
0.726501 0.721832 0.727692
0.726501 0.721832 0.727692
0.726501 0.721832 0.727692
0.726501 0.721832 0.727692
0.726501 0.721832 0.727692
0.726501 0.721832 0.727692
0.726501 0.721832 0.727692
0.726501 0.721832 0.727692
0.726501 0.721832 0.727692
0.726501 0.721832 0.727692
0.726501 0.721832 0.727692
0.726501 0.721832 0.727692
0.726501 0.721832 0.727692
0.726501 0.721832 0.727692
0.726501 0.721832 0.727692
0.726501 0.721832 0.727692
0.726501 0.721832 0.727692
0.726501 0.721832 0.727692
0.726501 0.721832 0.727692
0.726501 0.721832 0.727692
0.726501 0.721832 0.727692
0.726501 0.721832 0.727692
0.726501 0.721832 0.727692
0.726501 0.721832 0.727692
0.726501 0.721832 0.727692
0.726501 0.721832 0.727692
0.726501 0.721832 0.727692
0.726501 0.721832 0.727692
0.726501 0.721832 0.727692
0.726501 0.721832 0.727692
0.726501 0.721832 0.727692
0.726501 0.721832 0.727692
0.726501 0.721832 0.727692
0.726501 0.721832 0.727692
0.726501 0.721832 0.727692
0.726501 0.721832 0.727692
0.726501 0.721832 0.727692
0.726501 0.721832 0.727692
0.726501 0.721832 0.727692
0.723694 0.711609 0.712708
0.722443 0.707397 0.708038
0.721588 0.709137 0.712189
0.723816 0.710388 0.710632
0.723022 0.707825 0.707886
0.724365 0.710114 0.710236
0.720215 0.706635 0.709015
0.721680 0.707977 0.708771
0.722931 0.711609 0.712708
0.723297 0.709564 0.710907
0.724030 0.710480 0.712433
0.723816 0.712738 0.713379
0.724792 0.710724 0.712555
0.723175 0.709259 0.711792
0.720978 0.709991 0.709839
0.723175 0.712524 0.714905
0.723877 0.713226 0.714081
0.723297 0.714294 0.716309
0.724548 0.716370 0.719238
0.721802 0.715454 0.717102
0.726288 0.713776 0.719086
0.723694 0.714172 0.716888
0.726227 0.716675 0.719635
0.723633 0.713379 0.718689
0.724091 0.716675 0.722015
0.724274 0.714386 0.720581
0.725220 0.716156 0.720642
0.722809 0.716766 0.721985
0.721802 0.718842 0.721985
0.724091 0.717010 0.720367
0.724030 0.718109 0.723267
0.723450 0.716949 0.722534
0.697205 0.625671 0.595001
0.697998 0.623962 0.593964
0.694855 0.623596 0.592987
0.697235 0.621429 0.595856
0.699036 0.625732 0.598053
0.701447 0.623596 0.596954
0.701447 0.624908 0.594299
0.700348 0.625732 0.598053
0.704102 0.628815 0.600922
0.703705 0.628601 0.600098
0.705231 0.626740 0.602509
0.702362 0.632568 0.604156
0.703522 0.630493 0.604462
0.701447 0.635376 0.608856
0.700806 0.629150 0.604462
0.701233 0.634644 0.605164
0.701965 0.632446 0.604828
0.703522 0.633179 0.611237
0.706390 0.635254 0.613525
0.704498 0.633087 0.609314
0.707581 0.635864 0.612579
0.705048 0.637909 0.614899
0.706543 0.638611 0.614471
0.706390 0.639252 0.614899
0.706879 0.643921 0.620331
0.710693 0.645844 0.620728
0.708038 0.643250 0.623352
0.706726 0.644531 0.628662
0.705750 0.649719 0.627716
0.712616 0.649078 0.632843
0.711090 0.651611 0.631165
0.710236 0.650970 0.632446
0.677002 0.585754 0.553619
0.678162 0.583466 0.554779
0.679779 0.585968 0.555328
0.678406 0.583130 0.552612
0.677704 0.587921 0.553131
0.680908 0.590485 0.556488
0.680481 0.589203 0.559418
0.680481 0.589203 0.558258
0.679321 0.589203 0.559418
0.678162 0.590332 0.559418
0.678864 0.590240 0.557770
0.682068 0.592743 0.559906
0.685486 0.595001 0.564453
0.681610 0.592621 0.564026
0.683899 0.594910 0.564026
0.682770 0.594910 0.564026
0.682770 0.596069 0.564026
0.688141 0.597137 0.565918
0.685059 0.599487 0.568634
0.685486 0.600677 0.569031
0.687378 0.600647 0.570923
0.687378 0.601776 0.572083
0.688141 0.602936 0.574066
0.687378 0.601776 0.578979
0.688507 0.605194 0.574371
0.690033 0.606354 0.580444
0.688141 0.610840 0.580750
0.691528 0.614197 0.584137
0.691864 0.611938 0.587799
0.692322 0.613129 0.587280
0.694427 0.620728 0.594757
0.696014 0.619812 0.595428
0.675720 0.581665 0.550232
0.675720 0.581665 0.550232
0.676849 0.581665 0.551361
0.676849 0.581665 0.551361
0.676849 0.581665 0.551361
0.676849 0.581665 0.551361
0.677338 0.583069 0.552002
0.677338 0.583069 0.550873
0.679565 0.583069 0.549774
0.679565 0.583069 0.550873
0.676239 0.583069 0.549774
0.675110 0.583069 0.550873
0.676849 0.582794 0.551361
0.676239 0.583069 0.552002
0.676727 0.584442 0.554871
0.678314 0.586945 0.556610
0.677826 0.584442 0.555969
0.677826 0.585541 0.555969
0.678314 0.588013 0.558807
0.679291 0.589691 0.559021
0.679810 0.592102 0.560760
0.680847 0.592102 0.561829
0.679291 0.591827 0.560120
0.681335 0.593475 0.564636
0.682861 0.593811 0.565338
0.682281 0.597229 0.568115
0.682770 0.598602 0.570862
0.681763 0.597565 0.570862
0.682739 0.600311 0.574310
0.684692 0.603027 0.575806
0.686157 0.604401 0.577576
0.687103 0.605377 0.580444
0.905548 0.878387 0.870453
0.761993 0.693542 0.673553
0.678894 0.586548 0.559540
0.678894 0.586548 0.559540
0.676727 0.586548 0.558441
0.676727 0.586548 0.557343
0.676727 0.586548 0.557343
0.679382 0.589020 0.560150
0.679382 0.589020 0.560150
0.679382 0.589020 0.560150
0.678802 0.589325 0.559753
0.678802 0.589325 0.558685
0.678741 0.591064 0.560760
0.680847 0.592102 0.560760
0.680847 0.589996 0.560760
0.680298 0.592438 0.563599
0.680786 0.594849 0.566376
0.682281 0.596222 0.566040
0.682770 0.596558 0.568817
0.684265 0.597961 0.570587
0.683746 0.598328 0.571320
0.682251 0.600708 0.574066
0.684692 0.604004 0.576782
0.687561 0.605774 0.580261
0.688965 0.607147 0.582947
0.688477 0.608490 0.584656
0.689392 0.612122 0.587189
0.688049 0.613495 0.588043
0.688538 0.614838 0.589783
0.690369 0.619263 0.593262
0.691315 0.621918 0.597595
0.690125 0.621613 0.600159
0.690857 0.624176 0.602661
0.691650 0.622589 0.602661
0.690857 0.623352 0.602661
0.690857 0.625763 0.604279
0.693420 0.628448 0.607727
0.693909 0.629028 0.610229
0.693115 0.629791 0.608673
0.696350 0.631744 0.613647
0.697571 0.633087 0.615356
0.695282 0.634521 0.614929
0.697632 0.636505 0.620514
0.698334 0.637909 0.619812
0.697632 0.639313 0.619110
0.699005 0.641907 0.623627
0.698151 0.643890 0.626678
0.699738 0.645905 0.629456
0.701935 0.648560 0.632904
0.700684 0.648560 0.634125
0.700562 0.648712 0.636444
0.703125 0.653900 0.640930
0.704041 0.658722 0.645447
0.703979 0.659485 0.646576
0.704956 0.660278 0.648254
0.706329 0.663696 0.652863
0.706787 0.665039 0.655029
0.706329 0.665894 0.655792
0.707764 0.668579 0.660461
0.708679 0.671631 0.663055
0.709137 0.673370 0.665588
0.709686 0.676758 0.670502
0.711029 0.680054 0.673035
0.712646 0.681915 0.676697
0.714447 0.684296 0.677795
0.712555 0.685059 0.677185
0.714172 0.684540 0.677734
0.711975 0.682983 0.676208
0.714203 0.684631 0.675659
0.714447 0.683746 0.677246
0.713654 0.683533 0.676208
0.713654 0.682434 0.674530
0.713379 0.682770 0.676331
0.713379 0.682770 0.675751
0.713654 0.681885 0.676758
0.713379 0.683350 0.677460
0.713959 0.682770 0.676331
0.714874 0.681427 0.675323
0.715118 0.684479 0.678619
0.715118 0.685608 0.679749
0.714447 0.683472 0.677521
0.713593 0.682159 0.677216
0.714447 0.682861 0.677521
0.712982 0.682159 0.675354
0.711578 0.680634 0.673157
0.713776 0.683228 0.675385
0.713135 0.683228 0.675385
0.714386 0.682587 0.675385
0.715302 0.680573 0.674866
0.713776 0.679871 0.673309
0.713104 0.680542 0.673981
0.714447 0.682526 0.676666
0.714050 0.681213 0.673584
0.713837 0.680573 0.671295
0.713623 0.679901 0.670380
0.712921 0.679901 0.670380
0.718414 0.690491 0.685425
0.718292 0.691223 0.686554
0.718079 0.690582 0.685730
0.718079 0.690582 0.685730
0.718597 0.691132 0.686279
0.718079 0.690582 0.685730
0.717163 0.688751 0.683472
0.717377 0.689392 0.684296
0.717377 0.689392 0.684296
0.717163 0.688751 0.683472
0.717041 0.689453 0.684601
0.717041 0.689453 0.684601
0.717041 0.689453 0.684601
0.717468 0.690735 0.686279
0.717041 0.689453 0.684601
0.717255 0.690094 0.685455
0.717255 0.690094 0.685455
0.717041 0.689453 0.684601
0.717255 0.690094 0.685455
0.716553 0.688904 0.684021
0.716766 0.689545 0.684875
0.716553 0.688904 0.684021
0.716553 0.688904 0.684021
0.716553 0.688904 0.684021
0.716370 0.688263 0.683197
0.716980 0.690186 0.685699
0.716980 0.690186 0.685699
0.716553 0.688904 0.684021
0.716553 0.688904 0.684021
0.716766 0.689545 0.684875
0.716370 0.688843 0.683746
0.718597 0.691284 0.686218
0.755432 0.750549 0.755493
0.753967 0.749054 0.754059
0.753143 0.748901 0.754242
0.752167 0.747650 0.752869
0.750183 0.745880 0.751282
0.749207 0.744873 0.750305
0.747345 0.742188 0.747253
0.746521 0.741425 0.746552
0.746063 0.741302 0.746582
0.744720 0.740082 0.745453
0.743774 0.739380 0.744904
0.743591 0.738495 0.743683
0.743286 0.738861 0.744415
0.741791 0.737366 0.742920
0.740814 0.736359 0.741943
0.739960 0.734436 0.739502
0.739044 0.733826 0.739105
0.738342 0.733856 0.739502
0.737640 0.732727 0.738159
0.736450 0.731049 0.736298
0.735870 0.731354 0.737030
0.735870 0.731354 0.737030
0.735382 0.730865 0.736542
0.734406 0.729858 0.735565
0.733215 0.728210 0.733734
0.733398 0.728851 0.734589
0.732697 0.727692 0.733215
0.732422 0.727844 0.733582
0.731934 0.727356 0.733093
0.730835 0.725861 0.731445
0.730194 0.725159 0.730713
0.730194 0.724884 0.730255
0.722412 0.700165 0.694916
0.722229 0.698669 0.695465
0.725006 0.703369 0.699188
0.725769 0.705872 0.701172
0.725342 0.706238 0.703247
0.725281 0.705933 0.703094
0.725891 0.706573 0.704620
0.725952 0.707031 0.706085
0.725037 0.708160 0.706024
0.726074 0.709137 0.708466
0.725189 0.709290 0.708923
0.725616 0.708496 0.708008
0.725250 0.709930 0.709473
0.725708 0.709778 0.710052
0.724945 0.709412 0.709290
0.725372 0.709747 0.710205
0.725067 0.710114 0.710144
0.724701 0.709747 0.710144
0.724426 0.709778 0.710358
0.723999 0.708679 0.708710
0.724243 0.709930 0.710815
0.724396 0.710144 0.711365
0.723999 0.709412 0.710144
0.723358 0.708466 0.709198
0.723175 0.708344 0.708954
0.723175 0.708649 0.709564
0.723358 0.707520 0.708252
0.722870 0.707458 0.708038
0.722443 0.707214 0.707642
0.723022 0.707977 0.708771
0.722565 0.706848 0.707458
0.722290 0.705414 0.705627
0.708954 0.648956 0.628998
0.708221 0.649872 0.628510
0.708405 0.648346 0.627228
0.709015 0.651642 0.632416
0.709229 0.652374 0.630096
0.707245 0.649841 0.632233
0.707916 0.654236 0.635223
0.709503 0.655731 0.636658
0.709290 0.655579 0.639587
0.711487 0.659302 0.641571
0.710358 0.659149 0.642914
0.710022 0.661346 0.646790
0.710449 0.662811 0.647797
0.712494 0.667175 0.651520
0.711578 0.665344 0.649719
0.711060 0.663849 0.649994
0.712158 0.663666 0.648224
0.712341 0.665314 0.651031
0.711456 0.664398 0.650116
0.710541 0.664398 0.651031
0.711395 0.666504 0.654907
0.711731 0.666718 0.654297
0.710663 0.665131 0.651611
0.710663 0.665131 0.651611
0.709595 0.664398 0.652344
0.709595 0.665253 0.654114
0.708252 0.665588 0.651306
0.710449 0.667847 0.656738
0.710449 0.668732 0.656738
0.709412 0.670776 0.658630
0.709930 0.667267 0.655243
0.710022 0.665405 0.652435
0.689606 0.605194 0.578613
0.688629 0.605194 0.576569
0.689606 0.606171 0.576172
0.689514 0.605835 0.577148
0.687500 0.602783 0.576111
0.687408 0.604431 0.577087
0.688324 0.605103 0.579102
0.686859 0.603760 0.576355
0.689209 0.604797 0.579071
0.688629 0.605103 0.580322
0.687683 0.606079 0.577393
0.688141 0.608398 0.582031
0.688599 0.609741 0.582764
0.688538 0.609436 0.582794
0.690430 0.610382 0.586609
0.689453 0.614594 0.590698
0.690796 0.615936 0.591736
0.691742 0.617706 0.595093
0.690277 0.617920 0.593506
0.690765 0.620117 0.595184
0.692169 0.622375 0.600311
0.690430 0.622253 0.601318
0.692261 0.624908 0.604736
0.692749 0.627869 0.606445
0.693481 0.628540 0.609039
0.694458 0.630432 0.611664
0.696167 0.633850 0.614319
0.697784 0.637238 0.618439
0.699677 0.638550 0.620850
0.698883 0.639252 0.621887
0.700897 0.643219 0.626953
0.701782 0.647125 0.629669
0.681335 0.586945 0.558380
0.680756 0.588409 0.556488
0.678558 0.587311 0.555389
0.680756 0.587311 0.554291
0.680756 0.587311 0.555389
0.679108 0.586609 0.554626
0.680206 0.586609 0.554626
0.677979 0.586609 0.553528
0.679626 0.585907 0.554993
0.678528 0.585907 0.554993
0.678528 0.584808 0.556122
0.679596 0.587982 0.558594
0.680603 0.587585 0.559570
0.681671 0.587585 0.559570
0.680603 0.588654 0.561768
0.680023 0.587952 0.559937
0.680023 0.587952 0.558838
0.680511 0.590424 0.560577
0.679352 0.590027 0.561584
0.680939 0.593506 0.562225
0.681976 0.593506 0.563293
0.682465 0.593842 0.565063
0.681915 0.596222 0.565765
0.682404 0.598602 0.568542
0.683899 0.599976 0.572296
0.683899 0.598938 0.572296
0.682343 0.599030 0.573059
0.683777 0.600433 0.575775
0.686707 0.603180 0.580200
0.687164 0.605499 0.580017
0.686127 0.607147 0.581055
0.687103 0.609863 0.584534
0.678070 0.583252 0.551514
0.677582 0.583038 0.549774
0.677582 0.583038 0.549774
0.677582 0.583038 0.549774
0.675293 0.583038 0.549774
0.675812 0.582123 0.550385
0.677582 0.583038 0.550934
0.680145 0.585999 0.556091
0.679688 0.584625 0.554382
0.680359 0.583252 0.552673
0.679688 0.583496 0.554382
0.678558 0.585754 0.554382
0.678070 0.584412 0.553802
0.678558 0.586853 0.554382
0.678558 0.587982 0.555511
0.679688 0.587982 0.555511
0.679047 0.588196 0.558319
0.681946 0.590240 0.557739
0.681274 0.592651 0.559448
0.681549 0.592224 0.564514
0.684357 0.594177 0.565002
0.683289 0.596344 0.566132
0.682648 0.595490 0.566681
0.684601 0.595978 0.570007
0.684784 0.596558 0.568848
0.684662 0.599274 0.568695
0.685974 0.602081 0.574707
0.685974 0.603119 0.575745
0.687439 0.603363 0.577393
0.686859 0.606659 0.580017
0.689484 0.607452 0.579437
0.689301 0.609924 0.582672
0.684662 0.594543 0.565338
0.684662 0.594543 0.564026
0.687286 0.595825 0.566650
0.687286 0.597137 0.567963
0.689911 0.599731 0.567963
0.689270 0.598969 0.567871
0.686279 0.599274 0.566559
0.686615 0.602936 0.567871
0.689270 0.602936 0.567871
0.690308 0.604614 0.570557
0.689270 0.606903 0.574524
0.690308 0.605927 0.574615
0.690308 0.607269 0.573242
0.691650 0.607269 0.574615
0.692688 0.606323 0.576019
0.693787 0.609436 0.578857
0.695129 0.610779 0.580231
0.693512 0.615326 0.580383
0.693512 0.613953 0.579041
0.696259 0.613953 0.579041
0.694611 0.614471 0.583374
0.694611 0.614471 0.586151
0.697174 0.614960 0.587799
0.698578 0.613586 0.590607
0.699738 0.616913 0.589508
0.699738 0.618317 0.593719
0.701172 0.623932 0.599365
0.700958 0.625977 0.599762
0.700958 0.627380 0.598358
0.703796 0.630188 0.599762
0.699127 0.625885 0.602081
0.696228 0.631622 0.603546
0.716461 0.685364 0.675812
0.716461 0.683350 0.676819
0.713226 0.682251 0.674011
0.714020 0.683655 0.676208
0.714874 0.687195 0.680695
0.716583 0.688965 0.686279
0.712860 0.687744 0.680908
0.714844 0.687469 0.680969
0.717285 0.687408 0.684845
0.711304 0.684082 0.680115
0.717560 0.687012 0.681152
0.715485 0.691559 0.686157
0.715546 0.691681 0.685394
0.715759 0.693268 0.688690
0.715607 0.694061 0.688507
0.718018 0.696045 0.691406
0.715454 0.694000 0.690887
0.717804 0.698761 0.695740
0.718445 0.699402 0.696594
0.720123 0.699036 0.696228
0.720459 0.701447 0.699097
0.722137 0.704102 0.699921
0.716248 0.701813 0.699158
0.715027 0.700836 0.697083
0.718323 0.700134 0.697235
0.715118 0.699005 0.697815
0.717957 0.699860 0.701843
0.720703 0.702881 0.703094
0.721710 0.704803 0.705566
0.721405 0.707031 0.709686
0.723022 0.708252 0.709686
0.722931 0.707794 0.711182
0.726501 0.721832 0.727692
0.726501 0.721832 0.727692
0.726501 0.721832 0.727692
0.726501 0.721832 0.727692
0.726501 0.721832 0.727692
0.723633 0.718994 0.724823
0.726501 0.721832 0.727692
0.726501 0.721832 0.727692
0.726501 0.721832 0.727692
0.726501 0.721832 0.727692
0.726501 0.721832 0.727692
0.726501 0.721832 0.727692
0.726501 0.721832 0.727692
0.726501 0.721832 0.727692
0.726501 0.721832 0.727692
0.726501 0.721832 0.727692
0.726501 0.721832 0.727692
0.726501 0.721832 0.727692
0.726501 0.721832 0.727692
0.726501 0.721832 0.727692
0.726501 0.721832 0.727692
0.726501 0.721832 0.727692
0.726501 0.721832 0.727692
0.726501 0.721832 0.727692
0.726501 0.721832 0.727692
0.726501 0.721832 0.727692
0.726501 0.721832 0.727692
0.726501 0.721832 0.727692
0.726501 0.721832 0.727692
0.726501 0.721832 0.727692
0.726501 0.721832 0.727692
0.726501 0.721832 0.727692
0.726501 0.721832 0.727692
0.726501 0.721832 0.727692
0.726501 0.721832 0.727692
0.726501 0.721832 0.727692
0.726501 0.721832 0.727692
0.726501 0.721832 0.727692
0.726501 0.721832 0.727692
0.726501 0.721832 0.727692
0.726501 0.721832 0.727692
0.726501 0.721832 0.727692
0.726501 0.721832 0.727692
0.726501 0.721832 0.727692
0.726501 0.721832 0.727692
0.726501 0.721832 0.727692
0.726501 0.721832 0.727692
0.726501 0.721832 0.727692
0.726501 0.721832 0.727692
0.726501 0.721832 0.727692
0.726501 0.721832 0.727692
0.726501 0.721832 0.727692
0.726501 0.721832 0.727692
0.726501 0.721832 0.727692
0.726501 0.721832 0.727692
0.726501 0.721832 0.727692
0.726501 0.721832 0.727692
0.726501 0.721832 0.727692
0.726501 0.721832 0.727692
0.726501 0.721832 0.727692
0.726501 0.721832 0.727692
0.726501 0.721832 0.727692
0.726501 0.721832 0.727692
0.726501 0.721832 0.727692
0.726501 0.721832 0.727692
0.726501 0.721832 0.727692
0.726501 0.721832 0.727692
0.726501 0.721832 0.727692
0.726501 0.721832 0.727692
0.726501 0.721832 0.727692
0.726501 0.721832 0.727692
0.726501 0.721832 0.727692
0.726501 0.721832 0.727692
0.726501 0.721832 0.727692
0.726501 0.721832 0.727692
0.726501 0.721832 0.727692
0.726501 0.721832 0.727692
0.726501 0.721832 0.727692
0.726501 0.721832 0.727692
0.726501 0.721832 0.727692
0.726501 0.721832 0.727692
0.726501 0.721832 0.727692
0.726501 0.721832 0.727692
0.726501 0.721832 0.727692
0.726501 0.721832 0.727692
0.726501 0.721832 0.727692
0.726501 0.721832 0.727692
0.726501 0.721832 0.727692
0.726501 0.721832 0.727692
0.726501 0.721832 0.727692
0.726501 0.721832 0.727692
0.726501 0.721832 0.727692
0.726501 0.721832 0.727692
0.726501 0.721832 0.727692
0.726501 0.721832 0.727692
0.726501 0.721832 0.727692
0.726501 0.721832 0.727692
0.726501 0.721832 0.727692
0.726501 0.721832 0.727692
0.726501 0.721832 0.727692
0.726501 0.721832 0.727692
0.726501 0.721832 0.727692
0.726501 0.721832 0.727692
0.726501 0.721832 0.727692
0.726501 0.721832 0.727692
0.726501 0.721832 0.727692
0.726501 0.721832 0.727692
0.726501 0.721832 0.727692
0.726501 0.721832 0.727692
0.726501 0.721832 0.727692
0.726501 0.721832 0.727692
0.726501 0.721832 0.727692
0.726501 0.721832 0.727692
