PSD files/lut/makeup template 1200.CUBE
#Created by: Adobe Photoshop Export Color Lookup Plugin
TITLE "makeup template 1200.psd"
#LUT size
LUT_3D_SIZE 8
#data domain
#LUT data points
DOMAIN_MIN 0.000000 0.000000 0.000000
DOMAIN_MAX 0.903226 0.903226 0.903226
0.726501 0.721832 0.727692
0.726501 0.721832 0.727692
0.726501 0.721832 0.727692
0.726501 0.721832 0.727692
0.726501 0.721832 0.727692
0.726501 0.721832 0.727692
0.726501 0.721832 0.727692
0.726501 0.721832 0.727692
0.726501 0.721832 0.727692
0.726501 0.721832 0.727692
0.726501 0.721832 0.727692
0.726501 0.721832 0.727692
0.726501 0.721832 0.727692
0.726501 0.721832 0.727692
0.726501 0.721832 0.727692
0.726501 0.721832 0.727692
0.723694 0.711609 0.712708
0.723022 0.707825 0.707886
0.722931 0.711609 0.712708
0.724792 0.710724 0.712555
0.723877 0.713226 0.714081
0.726288 0.713776 0.719086
0.724091 0.716675 0.722015
0.721802 0.718842 0.721985
0.905548 0.878387 0.870453
0.676727 0.586548 0.558441
0.679382 0.589020 0.560150
0.678741 0.591064 0.560760
0.680786 0.594849 0.566376
0.683746 0.598328 0.571320
0.688965 0.607147 0.582947
0.688538 0.614838 0.589783
0.755432 0.750549 0.755493
0.750183 0.745880 0.751282
0.746063 0.741302 0.746582
0.743286 0.738861 0.744415
0.739044 0.733826 0.739105
0.735870 0.731354 0.737030
0.733215 0.728210 0.733734
0.731934 0.727356 0.733093
0.681335 0.586945 0.558380
0.680756 0.587311 0.555389
0.679626 0.585907 0.554993
0.680603 0.587585 0.559570
0.680023 0.587952 0.558838
0.681976 0.593506 0.563293
0.683899 0.599976 0.572296
0.686707 0.603180 0.580200
0.726501 0.721832 0.727692
0.726501 0.721832 0.727692
0.726501 0.721832 0.727692
0.726501 0.721832 0.727692
0.726501 0.721832 0.727692
0.726501 0.721832 0.727692
0.726501 0.721832 0.727692
0.726501 0.721832 0.727692
0.726501 0.721832 0.727692
0.726501 0.721832 0.727692
0.726501 0.721832 0.727692
0.726501 0.721832 0.727692
0.726501 0.721832 0.727692
0.726501 0.721832 0.727692
0.726501 0.721832 0.727692
0.726501 0.721832 0.727692
0.726501 0.721832 0.727692
0.726501 0.721832 0.727692
0.726501 0.721832 0.727692
0.726501 0.721832 0.727692
0.726501 0.721832 0.727692
0.726501 0.721832 0.727692
0.726501 0.721832 0.727692
0.726501 0.721832 0.727692
0.726501 0.721832 0.727692
0.726501 0.721832 0.727692
0.726501 0.721832 0.727692
0.726501 0.721832 0.727692
0.726501 0.721832 0.727692
0.726501 0.721832 0.727692
0.726501 0.721832 0.727692
0.726501 0.721832 0.727692
0.721405 0.703705 0.701324
0.720062 0.704437 0.702728
0.719849 0.704285 0.704468
0.722992 0.708160 0.708557
0.724915 0.710876 0.712128
0.725708 0.714935 0.716797
0.721771 0.711639 0.713593
0.723206 0.714752 0.719238
0.683167 0.593872 0.565338
0.679382 0.586853 0.559082
0.678741 0.591064 0.560760
0.680786 0.593811 0.565338
0.682770 0.597565 0.568817
0.686157 0.603455 0.579498
0.688934 0.611694 0.584534
0.690125 0.622437 0.599335
0.755127 0.750183 0.755005
0.750702 0.746124 0.751373
0.746735 0.741882 0.747040
0.742310 0.737854 0.743439
0.739319 0.734589 0.740051
0.735870 0.731354 0.737030
0.733917 0.729340 0.735077
0.731720 0.726440 0.731842
0.678558 0.587311 0.554291
0.679626 0.585907 0.552795
0.677399 0.585907 0.553864
0.678436 0.586578 0.557098
0.679443 0.587250 0.559204
0.680939 0.594543 0.562225
0.683899 0.598938 0.571289
0.685242 0.602753 0.578491
0.726501 0.721832 0.727692
0.726501 0.721832 0.727692
0.726501 0.721832 0.727692
0.726501 0.721832 0.727692
0.726501 0.721832 0.727692
0.726501 0.721832 0.727692
0.726501 0.721832 0.727692
0.726501 0.721832 0.727692
0.726501 0.721832 0.727692
0.726501 0.721832 0.727692
0.726501 0.721832 0.727692
0.726501 0.721832 0.727692
0.726501 0.721832 0.727692
0.726501 0.721832 0.727692
0.726501 0.721832 0.727692
0.726501 0.721832 0.727692
0.726501 0.721832 0.727692
0.726501 0.721832 0.727692
0.726501 0.721832 0.727692
0.726501 0.721832 0.727692
0.726501 0.721832 0.727692
0.726501 0.721832 0.727692
0.726501 0.721832 0.727692
0.726501 0.721832 0.727692
0.726501 0.721832 0.727692
0.726501 0.721832 0.727692
0.726501 0.721832 0.727692
0.726501 0.721832 0.727692
0.726501 0.721832 0.727692
0.726501 0.721832 0.727692
0.726501 0.721832 0.727692
0.726501 0.721832 0.727692
0.717773 0.693512 0.688080
0.718719 0.695435 0.693298
0.718964 0.697021 0.695679
0.719788 0.701324 0.699493
0.719666 0.706055 0.702118
0.723999 0.705170 0.706696
0.721283 0.707245 0.708496
0.721008 0.707184 0.710358
0.679321 0.591766 0.561493
0.679321 0.591766 0.561493
0.681335 0.592438 0.563599
0.682770 0.596558 0.567810
0.682251 0.599731 0.574066
0.688477 0.608490 0.584656
0.688141 0.615326 0.591522
0.693176 0.626465 0.603729
0.752655 0.747406 0.752197
0.748230 0.743408 0.748535
0.744751 0.739380 0.744263
0.740814 0.735870 0.741119
0.738342 0.733582 0.739075
0.735382 0.730347 0.735718
0.732819 0.727661 0.733063
0.730804 0.725800 0.731354
0.680206 0.586609 0.554626
0.679626 0.585907 0.552795
0.677948 0.585205 0.553131
0.679047 0.584106 0.554260
0.680023 0.587952 0.561035
0.680420 0.593231 0.561584
0.683441 0.594513 0.566071
0.682251 0.601685 0.575043
0.726501 0.721832 0.727692
0.726501 0.721832 0.727692
0.726501 0.721832 0.727692
0.726501 0.721832 0.727692
0.726501 0.721832 0.727692
0.726501 0.721832 0.727692
0.726501 0.721832 0.727692
0.726501 0.721832 0.727692
0.726501 0.721832 0.727692
0.726501 0.721832 0.727692
0.726501 0.721832 0.727692
0.726501 0.721832 0.727692
0.726501 0.721832 0.727692
0.726501 0.721832 0.727692
0.726501 0.721832 0.727692
0.726501 0.721832 0.727692
0.726501 0.721832 0.727692
0.726501 0.721832 0.727692
0.726501 0.721832 0.727692
0.726501 0.721832 0.727692
0.726501 0.721832 0.727692
0.726501 0.721832 0.727692
0.726501 0.721832 0.727692
0.726501 0.721832 0.727692
0.726501 0.721832 0.727692
0.726501 0.721832 0.727692
0.726501 0.721832 0.727692
0.726501 0.721832 0.727692
0.726501 0.721832 0.727692
0.726501 0.721832 0.727692
0.726501 0.721832 0.727692
0.726501 0.721832 0.727692
0.714966 0.683167 0.679077
0.714691 0.683258 0.675995
0.717804 0.687683 0.682251
0.716034 0.689362 0.684052
0.718994 0.696045 0.692291
0.717407 0.698395 0.697418
0.718872 0.700958 0.699188
0.720428 0.701599 0.700836
0.680878 0.593140 0.564331
0.683441 0.594513 0.566071
0.683350 0.597260 0.568542
0.685211 0.601685 0.574066
0.687073 0.606201 0.582947
0.689423 0.613953 0.589783
0.690948 0.623260 0.599335
0.695801 0.631104 0.612213
0.746246 0.740143 0.744568
0.743774 0.737885 0.742493
0.740814 0.735596 0.740723
0.738159 0.732483 0.737457
0.735809 0.730530 0.735687
0.733368 0.728027 0.733276
0.731445 0.726593 0.732178
0.728790 0.722534 0.727600
0.679626 0.585907 0.553864
0.679047 0.585205 0.553131
0.681274 0.585205 0.553131
0.679047 0.586304 0.554260
0.678375 0.586182 0.558105
0.676666 0.589325 0.558685
0.682404 0.594513 0.568146
0.682739 0.600311 0.573303
0.726501 0.721832 0.727692
0.726501 0.721832 0.727692
0.726501 0.721832 0.727692
0.726501 0.721832 0.727692
0.726501 0.721832 0.727692
0.726501 0.721832 0.727692
0.726501 0.721832 0.727692
0.726501 0.721832 0.727692
0.726501 0.721832 0.727692
0.726501 0.721832 0.727692
0.726501 0.721832 0.727692
0.726501 0.721832 0.727692
0.726501 0.721832 0.727692
0.726501 0.721832 0.727692
0.726501 0.721832 0.727692
0.726501 0.721832 0.727692
0.726501 0.721832 0.727692
0.726501 0.721832 0.727692
0.726501 0.721832 0.727692
0.726501 0.721832 0.727692
0.726501 0.721832 0.727692
0.726501 0.721832 0.727692
0.726501 0.721832 0.727692
0.726501 0.721832 0.727692
0.726501 0.721832 0.727692
0.726501 0.721832 0.727692
0.726501 0.721832 0.727692
0.726501 0.721832 0.727692
0.726501 0.721832 0.727692
0.726501 0.721832 0.727692
0.726501 0.721832 0.727692
0.726501 0.721832 0.727692
0.712006 0.671387 0.661011
0.712433 0.673218 0.660553
0.714630 0.677307 0.666290
0.712250 0.681641 0.672882
0.714600 0.684967 0.680878
0.714325 0.688507 0.684113
0.720337 0.696259 0.693848
0.715698 0.693512 0.695435
0.681335 0.597260 0.568542
0.683350 0.596252 0.569550
0.682831 0.600433 0.574799
0.685272 0.606445 0.580963
0.689850 0.613495 0.589813
0.691315 0.619415 0.597595
0.691803 0.628387 0.610321
0.698547 0.640564 0.622559
0.738708 0.730743 0.734253
0.737366 0.730286 0.734406
0.735870 0.729980 0.734894
0.733917 0.727966 0.732910
0.732208 0.726379 0.731445
0.730560 0.724060 0.728821
0.728851 0.722351 0.727203
0.728333 0.723267 0.728912
0.677429 0.583801 0.553619
0.677979 0.583099 0.552856
0.681274 0.585205 0.553131
0.679047 0.585205 0.555389
0.679504 0.585144 0.556702
0.679871 0.593597 0.559753
0.683563 0.593872 0.564697
0.682739 0.600311 0.574310
0.726501 0.721832 0.727692
0.726501 0.721832 0.727692
0.726501 0.721832 0.727692
0.726501 0.721832 0.727692
0.726501 0.721832 0.727692
0.726501 0.721832 0.727692
0.726501 0.721832 0.727692
0.726501 0.721832 0.727692
0.726501 0.721832 0.727692
0.726501 0.721832 0.727692
0.726501 0.721832 0.727692
0.726501 0.721832 0.727692
0.726501 0.721832 0.727692
0.726501 0.721832 0.727692
0.726501 0.721832 0.727692
0.726501 0.721832 0.727692
0.726501 0.721832 0.727692
0.726501 0.721832 0.727692
0.726501 0.721832 0.727692
0.726501 0.721832 0.727692
0.726501 0.721832 0.727692
0.726501 0.721832 0.727692
0.726501 0.721832 0.727692
0.726501 0.721832 0.727692
0.726501 0.721832 0.727692
0.726501 0.721832 0.727692
0.726501 0.721832 0.727692
0.726501 0.721832 0.727692
0.726501 0.721832 0.727692
0.726501 0.721832 0.727692
0.726501 0.721832 0.727692
0.726501 0.721832 0.727692
0.709290 0.660278 0.642365
0.711212 0.661926 0.646057
0.709290 0.662842 0.648407
0.710205 0.665100 0.650909
0.710297 0.668671 0.658600
0.712555 0.680267 0.670654
0.712433 0.684540 0.679291
0.714172 0.683441 0.675385
0.682831 0.600433 0.574799
0.685242 0.603699 0.576538
0.685272 0.605499 0.581909
0.689026 0.612793 0.587891
0.692139 0.620270 0.599274
0.694885 0.628387 0.609558
0.696930 0.638611 0.619110
0.700684 0.648560 0.633514
0.732422 0.721863 0.724152
0.731934 0.723145 0.726410
0.834656 0.829407 0.831482
0.938568 0.936920 0.937866
0.729248 0.721771 0.725983
0.728027 0.721100 0.725555
0.727325 0.720551 0.725281
0.726807 0.719971 0.724609
0.678558 0.583801 0.553619
0.677521 0.581726 0.552246
0.678467 0.584473 0.552368
0.679596 0.584473 0.553497
0.679504 0.586243 0.557800
0.679871 0.591461 0.560852
0.683441 0.595551 0.567108
0.683746 0.601288 0.573303
0.726501 0.721832 0.727692
0.726501 0.721832 0.727692
0.726501 0.721832 0.727692
0.726501 0.721832 0.727692
0.726501 0.721832 0.727692
0.726501 0.721832 0.727692
0.726501 0.721832 0.727692
0.726501 0.721832 0.727692
0.726501 0.721832 0.727692
0.726501 0.721832 0.727692
0.726501 0.721832 0.727692
0.726501 0.721832 0.727692
0.726501 0.721832 0.727692
0.726501 0.721832 0.727692
0.726501 0.721832 0.727692
0.726501 0.721832 0.727692
0.726501 0.721832 0.727692
0.726501 0.721832 0.727692
0.726501 0.721832 0.727692
0.726501 0.721832 0.727692
0.726501 0.721832 0.727692
0.726501 0.721832 0.727692
0.726501 0.721832 0.727692
0.726501 0.721832 0.727692
0.726501 0.721832 0.727692
0.726501 0.721832 0.727692
0.726501 0.721832 0.727692
0.726501 0.721832 0.727692
0.726501 0.721832 0.727692
0.726501 0.721832 0.727692
0.726501 0.721832 0.727692
0.726501 0.721832 0.727692
0.702332 0.644623 0.624603
0.706757 0.647491 0.627777
0.704437 0.650879 0.627747
0.707184 0.653137 0.635010
0.709198 0.659790 0.640106
0.709290 0.658875 0.643372
0.711212 0.665070 0.651154
0.715485 0.677399 0.666687
0.686676 0.606873 0.583649
0.689484 0.611450 0.586151
0.690857 0.615509 0.590485
0.690948 0.622437 0.600983
0.694885 0.628387 0.609558
0.696228 0.637909 0.619110
0.701019 0.645905 0.630737
0.704590 0.657104 0.644897
0.729126 0.715973 0.717255
0.728394 0.716888 0.718628
0.727966 0.716980 0.719177
0.729156 0.719391 0.722137
0.727295 0.717682 0.720612
0.726593 0.717651 0.721283
0.725647 0.716766 0.720276
0.725525 0.717133 0.721039
0.677521 0.581726 0.552246
0.677979 0.584198 0.551727
0.676880 0.584198 0.551727
0.678406 0.585144 0.555634
0.677307 0.586243 0.556702
0.681549 0.592224 0.561249
0.683990 0.597321 0.569580
0.683258 0.600952 0.573608
0.726501 0.721832 0.727692
0.726501 0.721832 0.727692
0.726501 0.721832 0.727692
0.726501 0.721832 0.727692
0.726501 0.721832 0.727692
0.726501 0.721832 0.727692
0.726501 0.721832 0.727692
0.726501 0.721832 0.727692
0.726501 0.721832 0.727692
0.726501 0.721832 0.727692
0.726501 0.721832 0.727692
0.726501 0.721832 0.727692
0.726501 0.721832 0.727692
0.726501 0.721832 0.727692
0.726501 0.721832 0.727692
0.726501 0.721832 0.727692
0.726501 0.721832 0.727692
0.726501 0.721832 0.727692
0.726501 0.721832 0.727692
0.726501 0.721832 0.727692
0.726501 0.721832 0.727692
0.726501 0.721832 0.727692
0.726501 0.721832 0.727692
0.726501 0.721832 0.727692
0.726501 0.721832 0.727692
0.726501 0.721832 0.727692
0.726501 0.721832 0.727692
0.726501 0.721832 0.727692
0.726501 0.721832 0.727692
0.726501 0.721832 0.727692
0.726501 0.721832 0.727692
0.726501 0.721832 0.727692
0.696899 0.631226 0.609070
0.703033 0.637909 0.612549
0.703369 0.639557 0.613037
0.703796 0.643433 0.617523
0.706360 0.643005 0.624481
0.712708 0.653229 0.630859
0.704163 0.650787 0.634796
0.712280 0.661224 0.643158
0.688599 0.614166 0.589630
0.691376 0.619568 0.597412
0.691162 0.625214 0.602539
0.693115 0.627502 0.609436
0.697418 0.637878 0.620850
0.700836 0.647247 0.631195
0.704712 0.655792 0.643188
0.707275 0.666809 0.654358
0.726471 0.708893 0.707581
0.727051 0.711060 0.710876
0.726746 0.712616 0.713226
0.725983 0.712372 0.713440
0.725922 0.713837 0.715576
0.725037 0.713074 0.715149
0.724976 0.713959 0.716522
0.723969 0.711700 0.713867
0.676453 0.581909 0.550934
0.678619 0.583954 0.552246
0.678070 0.583252 0.551514
0.680145 0.584869 0.553894
0.679047 0.585999 0.556091
0.680481 0.592224 0.563416
0.679871 0.595734 0.566193
0.684814 0.602631 0.574951
0.726501 0.721832 0.727692
0.726501 0.721832 0.727692
0.726501 0.721832 0.727692
0.726501 0.721832 0.727692
0.726501 0.721832 0.727692
0.726501 0.721832 0.727692
0.726501 0.721832 0.727692
0.726501 0.721832 0.727692
0.726501 0.721832 0.727692
0.726501 0.721832 0.727692
0.726501 0.721832 0.727692
0.726501 0.721832 0.727692
0.726501 0.721832 0.727692
0.726501 0.721832 0.727692
0.726501 0.721832 0.727692
0.726501 0.721832 0.727692
