PSD files/lut/makeup template 1200.CUBE
#Created by: Adobe Photoshop Export Color Lookup Plugin
TITLE "makeup template 1200.psd"
#LUT size
LUT_3D_SIZE 5
#data domain
#LUT data points
DOMAIN_MIN 0.000000 0.000000 0.000000
DOMAIN_MAX 0.903226 0.903226 0.903226
0.726501 0.721832 0.727692
0.726501 0.721832 0.727692
0.726501 0.721832 0.727692
0.726501 0.721832 0.727692
0.726501 0.721832 0.727692
0.726501 0.721832 0.727692
0.726501 0.721832 0.727692
0.726501 0.721832 0.727692
0.726501 0.721832 0.727692
0.726501 0.721832 0.727692
0.714447 0.684296 0.677795
0.713654 0.682434 0.674530
0.715118 0.684479 0.678619
0.713776 0.683228 0.675385
0.714050 0.681213 0.673584
0.678070 0.583252 0.551514
0.680145 0.585999 0.556091
0.678558 0.587982 0.555511
0.683289 0.596344 0.566132
0.687439 0.603363 0.577393
0.726501 0.721832 0.727692
0.726501 0.721832 0.727692
0.726501 0.721832 0.727692
0.726501 0.721832 0.727692
0.726501 0.721832 0.727692
0.726501 0.721832 0.727692
0.726501 0.721832 0.727692
0.726501 0.721832 0.727692
0.726501 0.721832 0.727692
0.726501 0.721832 0.727692
0.723633 0.718994 0.724823
0.726501 0.721832 0.727692
0.726501 0.721832 0.727692
0.726501 0.721832 0.727692
0.726501 0.721832 0.727692
0.712646 0.677795 0.670807
0.711975 0.677826 0.668762
0.712433 0.675995 0.667358
0.710358 0.672913 0.660492
0.710022 0.669037 0.657959
0.678284 0.582825 0.550385
0.677124 0.582825 0.551544
0.681061 0.592194 0.558990
0.683502 0.598206 0.569519
0.687897 0.609924 0.580505
0.726501 0.721832 0.727692
0.726501 0.721832 0.727692
0.726501 0.721832 0.727692
0.726501 0.721832 0.727692
0.726501 0.721832 0.727692
0.726501 0.721832 0.727692
0.726501 0.721832 0.727692
0.726501 0.721832 0.727692
0.726501 0.721832 0.727692
0.726501 0.721832 0.727692
0.725800 0.716644 0.721985
0.726501 0.721832 0.727692
0.723633 0.721832 0.724823
0.726501 0.721832 0.727692
0.726501 0.721832 0.727692
0.712036 0.674683 0.663239
0.707581 0.669678 0.659607
0.710419 0.670319 0.659637
0.709198 0.666473 0.654541
0.708801 0.665161 0.652832
0.678833 0.582275 0.550781
0.681213 0.590668 0.555634
0.686401 0.593048 0.559570
0.685852 0.597107 0.570831
0.692810 0.608704 0.584534
0.726501 0.721832 0.727692
0.726501 0.721832 0.727692
0.726501 0.721832 0.727692
0.726501 0.721832 0.727692
0.726501 0.721832 0.727692
0.726501 0.721832 0.727692
0.726501 0.721832 0.727692
0.726501 0.721832 0.727692
0.726501 0.721832 0.727692
0.726501 0.721832 0.727692
0.724152 0.717712 0.722412
0.723541 0.718872 0.724976
0.723663 0.719330 0.724854
0.726501 0.721832 0.724823
0.726501 0.721832 0.727692
0.711609 0.674194 0.664764
0.711212 0.672913 0.663055
0.710632 0.670959 0.660492
0.710419 0.670319 0.659637
0.710022 0.669037 0.657959
0.679596 0.587006 0.557648
0.680786 0.589508 0.559204
0.686829 0.598602 0.566193
0.692413 0.601410 0.573425
0.695221 0.616150 0.591064
0.726501 0.721832 0.727692
0.726501 0.721832 0.727692
0.726501 0.721832 0.727692
0.726501 0.721832 0.727692
0.726501 0.721832 0.727692
0.726501 0.721832 0.727692
0.726501 0.721832 0.727692
0.726501 0.721832 0.727692
0.726501 0.721832 0.727692
0.726501 0.721832 0.727692
0.724030 0.713776 0.718079
0.723694 0.716888 0.720642
0.724030 0.715851 0.719513
0.726013 0.716980 0.721619
0.723511 0.717072 0.722137
0.714355 0.681854 0.674683
0.714569 0.682495 0.675537
0.714355 0.681854 0.674683
0.713623 0.680634 0.673248
0.713623 0.681335 0.673981
0.684662 0.594879 0.559814
0.686676 0.595459 0.568115
0.690887 0.601318 0.571869
0.695404 0.609009 0.582794
0.699005 0.622131 0.590027
0.726501 0.721832 0.727692
0.726501 0.721832 0.727692
0.726501 0.721832 0.727692
0.726501 0.721832 0.727692
0.726501 0.721832 0.727692
