PSD files/lut/makeup template 1200.3DL
#Created by: Adobe Photoshop Export Color Lookup Plugin
#Description: makeup template 1200.psd
0 33 66 99 132 165 198 231 264 297 330 363 396 429 462 495 528 561 594 627 660 693 726 759 792 825 858 891 924 957 990 1023
2975 2956 2980
2975 2956 2980
2975 2956 2980
2975 2956 2980
2975 2956 2980
2975 2956 2980
2975 2956 2980
2975 2956 2980
2975 2956 2980
2975 2956 2980
2975 2956 2980
2975 2956 2980
2975 2956 2980
2975 2956 2980
2975 2956 2980
2975 2956 2980
2975 2956 2980
2975 2956 2980
2975 2956 2980
2975 2956 2980
2975 2956 2980
2975 2956 2980
2975 2956 2980
2975 2956 2980
2975 2956 2980
2975 2956 2980
2975 2956 2980
2975 2956 2980
2975 2956 2980
2975 2956 2980
2975 2956 2980
2975 2956 2980
2975 2956 2980
2975 2956 2980
2975 2956 2980
2975 2956 2980
2975 2956 2980
2975 2956 2980
2975 2956 2980
2975 2956 2980
2975 2956 2980
2975 2956 2980
2975 2956 2980
2975 2956 2980
2975 2956 2980
2975 2956 2980
2975 2956 2980
2975 2956 2980
2975 2956 2980
2975 2956 2980
2975 2956 2980
2975 2956 2980
2975 2956 2980
2975 2956 2980
2975 2956 2980
2975 2956 2980
2975 2956 2980
2975 2956 2980
2975 2956 2980
2975 2956 2980
2975 2956 2980
2975 2956 2980
2975 2956 2980
2975 2956 2980
2975 2956 2980
2975 2956 2980
2975 2956 2980
2975 2956 2980
2975 2956 2980
2975 2956 2980
2975 2956 2980
2975 2956 2980
2975 2956 2980
2975 2956 2980
2975 2956 2980
2975 2956 2980
2975 2956 2980
2975 2956 2980
2975 2956 2980
2975 2956 2980
2975 2956 2980
2975 2956 2980
2975 2956 2980
2975 2956 2980
2975 2956 2980
2975 2956 2980
2975 2956 2980
2975 2956 2980
2975 2956 2980
2975 2956 2980
2975 2956 2980
2975 2956 2980
2975 2956 2980
2975 2956 2980
2975 2956 2980
2975 2956 2980
2975 2956 2980
2975 2956 2980
2975 2956 2980
2975 2956 2980
2975 2956 2980
2975 2956 2980
2975 2956 2980
2975 2956 2980
2975 2956 2980
2975 2956 2980
2975 2956 2980
2975 2956 2980
2975 2956 2980
2975 2956 2980
2975 2956 2980
2975 2956 2980
2975 2956 2980
2975 2956 2980
2975 2956 2980
2975 2956 2980
2975 2956 2980
2975 2956 2980
2975 2956 2980
2975 2956 2980
2975 2956 2980
2975 2956 2980
2975 2956 2980
2975 2956 2980
2975 2956 2980
2975 2956 2980
2975 2956 2980
2975 2956 2980
2975 2956 2980
2975 2956 2980
2975 2956 2980
2975 2956 2980
2975 2956 2980
2975 2956 2980
2975 2956 2980
2975 2956 2980
2975 2956 2980
2975 2956 2980
2975 2956 2980
2975 2956 2980
2975 2956 2980
2975 2956 2980
2975 2956 2980
2975 2956 2980
2975 2956 2980
2975 2956 2980
2975 2956 2980
2975 2956 2980
2975 2956 2980
2975 2956 2980
2975 2956 2980
2975 2956 2980
2975 2956 2980
2975 2956 2980
2975 2956 2980
2975 2956 2980
2975 2956 2980
2975 2956 2980
2975 2956 2980
2975 2956 2980
2975 2956 2980
2975 2956 2980
2975 2956 2980
2975 2956 2980
2975 2956 2980
2975 2956 2980
2975 2956 2980
2975 2956 2980
2975 2956 2980
2975 2956 2980
2975 2956 2980
2975 2956 2980
2975 2956 2980
2975 2956 2980
2975 2956 2980
2975 2956 2980
2975 2956 2980
2975 2956 2980
2975 2956 2980
2975 2956 2980
2975 2956 2980
2975 2956 2980
2975 2956 2980
2975 2956 2980
2975 2956 2980
2975 2956 2980
2975 2956 2980
2975 2956 2980
2975 2956 2980
2975 2956 2980
2975 2956 2980
2975 2956 2980
2975 2956 2980
2975 2956 2980
2975 2956 2980
2975 2956 2980
2975 2956 2980
2975 2956 2980
2975 2956 2980
2975 2956 2980
2975 2956 2980
2975 2956 2980
2975 2956 2980
2975 2956 2980
2975 2956 2980
2975 2956 2980
2975 2956 2980
2975 2956 2980
2975 2956 2980
2975 2956 2980
2975 2956 2980
2975 2956 2980
2975 2956 2980
2975 2956 2980
2975 2956 2980
2975 2956 2980
2975 2956 2980
2975 2956 2980
2975 2956 2980
2975 2956 2980
2975 2956 2980
2975 2956 2980
2975 2956 2980
2975 2956 2980
2975 2956 2980
2975 2956 2980
2975 2956 2980
2975 2956 2980
2975 2956 2980
2975 2956 2980
2975 2956 2980
2963 2944 2968
2975 2956 2980
2975 2956 2980
2975 2956 2980
2975 2956 2980
2975 2956 2980
2975 2956 2980
2972 2935 2957
2971 2951 2968
2975 2956 2968
2973 2951 2969
2975 2944 2968
2969 2950 2974
2967 2944 2965
2965 2939 2958
2964 2932 2954
2965 2941 2955
2964 2936 2956
2965 2935 2955
2971 2934 2954
2967 2925 2935
2965 2923 2941
2963 2910 2917
2964 2920 2926
2959 2906 2910
2964 2914 2919
2961 2895 2897
2958 2883 2877
2956 2884 2873
2954 2882 2872
2953 2869 2865
2950 2869 2863
2940 2849 2839
2939 2840 2818
2936 2830 2807
2938 2829 2812
2925 2797 2774
2928 2798 2781
2919 2798 2760
2928 2789 2751
2920 2766 2725
2916 2749 2707
2906 2732 2691
2908 2721 2679
2898 2710 2659
2905 2704 2630
2898 2687 2613
2906 2673 2599
2890 2656 2585
2876 2640 2558
2875 2618 2531
2864 2611 2526
2860 2593 2499
2854 2585 2494
2860 2589 2480
2864 2581 2461
2857 2564 2462
2855 2562 2437
2852 2536 2422
2860 2536 2408
2832 2525 2397
2842 2510 2381
2848 2494 2370
2835 2496 2359
2823 2492 2343
2828 2482 2343
2829 2469 2332
2824 2468 2337
2829 2447 2326
2819 2446 2326
2810 2454 2325
2812 2437 2325
2806 2431 2315
2808 2430 2309
2809 2429 2283
2807 2433 2295
2798 2427 2290
2801 2421 2292
2802 2416 2293
2797 2421 2278
2789 2411 2284
2802 2411 2272
2799 2406 2288
2792 2417 2282
2792 2412 2282
2785 2408 2279
2775 2403 2270
2785 2398 2260
2775 2389 2270
2772 2399 2267
2774 2400 2274
2776 2396 2276
2776 2405 2272
2776 2396 2267
2783 2388 2265
2772 2382 2267
2772 2387 2258
2781 2387 2258
2774 2386 2255
2767 2387 2253
2776 2387 2253
2774 2388 2256
2776 2387 2253
2772 2387 2253
2774 2388 2256
2774 2388 2256
2774 2392 2260
2774 2388 2256
2774 2388 2256
2767 2382 2258
2767 2382 2258
2772 2382 2258
2772 2382 2258
2772 2382 2258
2767 2382 2258
2767 2382 2258
2772 2382 2258
2772 2382 2258
2772 2382 2258
2772 2382 2258
2772 2382 2258
2767 2382 2253
2774 2388 2256
2774 2388 2256
2774 2388 2256
2774 2388 2251
2778 2388 2256
2783 2388 2256
2778 2388 2256
2774 2388 2256
2769 2388 2256
2774 2388 2251
2769 2388 2251
2765 2388 2256
2765 2388 2256
2769 2383 2260
2774 2383 2260
2774 2392 2260
2774 2392 2260
2774 2392 2260
2774 2392 2265
2774 2392 2260
2771 2393 2272
2771 2393 2272
2778 2395 2275
2782 2395 2279
2778 2395 2275
2782 2395 2275
2778 2395 2270
2778 2395 2270
2783 2406 2286
2924 2588 2489
3425 3232 3173
3708 3597 3565
3753 3658 3628
3685 3571 3532
3318 3098 3028
2798 2432 2315
2784 2422 2297
2780 2422 2288
2782 2432 2299
2782 2423 2299
2790 2428 2299
2790 2428 2299
2790 2428 2299
2788 2429 2311
2790 2439 2314
2790 2435 2318
2788 2444 2325
2790 2446 2328
2798 2450 2332
2796 2452 2344
2798 2457 2343
2796 2459 2354
2796 2463 2350
2804 2474 2372
2816 2485 2390
2812 2485 2390
2814 2495 2389
2822 2506 2404
2822 2509 2411
2820 2515 2415
2822 2532 2432
2824 2534 2436
2830 2536 2447
2829 2556 2468
2832 2566 2475
2846 2573 2489
2845 2581 2507
2847 2598 2520
2855 2610 2530
2858 2623 2548
2865 2637 2567
2869 2645 2577
2873 2650 2591
2882 2666 2614
2883 2674 2619
2884 2687 2632
2888 2702 2646
2890 2709 2657
2889 2715 2668
2893 2729 2681
2901 2735 2690
2906 2752 2713
2904 2759 2725
2908 2770 2734
2915 2774 2744
2917 2780 2749
2918 2778 2753
2923 2784 2758
2925 2785 2763
2921 2784 2762
2919 2786 2772
2923 2799 2784
2914 2789 2767
2920 2799 2771
2921 2802 2773
2926 2802 2776
2924 2796 2767
2922 2787 2756
2919 2783 2751
2919 2783 2757
2912 2768 2738
2921 2787 2755
2918 2776 2747
2916 2778 2742
2916 2776 2736
2914 2770 2728
2912 2765 2733
2918 2771 2736
2917 2765 2720
2916 2763 2716
2912 2760 2716
2901 2751 2712
2914 2761 2722
2915 2763 2726
2913 2758 2719
2912 2756 2715
2914 2761 2722
2917 2769 2733
2917 2771 2736
2920 2774 2738
2923 2784 2752
2923 2784 2752
2924 2790 2759
2925 2792 2763
2929 2800 2772
2931 2805 2779
2938 2820 2798
2942 2828 2807
2944 2833 2814
2952 2850 2836
2960 2865 2853
2964 2872 2862
2971 2884 2876
2979 2899 2893
2985 2908 2904
2994 2925 2925
3000 2935 2936
3006 2944 2947
3016 2960 2965
3021 2967 2973
3030 2981 2989
3034 2990 3001
3041 2999 3011
3047 3006 3017
3054 3017 3031
3057 3024 3039
3058 3024 3038
3061 3028 3044
3070 3044 3063
3075 3051 3070
3075 3051 3070
3077 3053 3072
3082 3060 3079
3081 3057 3076
3087 3066 3086
3087 3066 3086
3091 3069 3089
3093 3072 3093
3090 3068 3087
3093 3073 3094
3089 3069 3088
3094 3077 3099
3094 3076 3097
3092 3072 3092
3090 3070 3090
3086 3066 3086
3084 3063 3082
3082 3061 3080
3076 3052 3069
3070 3047 3067
3064 3040 3059
3056 3031 3049
3048 3023 3041
3038 3011 3029
3032 3001 3016
3025 2992 3007
3020 2986 3001
3011 2977 2991
3003 2965 2977
2999 2956 2965
2994 2947 2956
2990 2941 2946
2988 2939 2945
2986 2932 2937
2984 2924 2925
2981 2918 2915
2979 2910 2904
2975 2903 2898
2972 2897 2886
2972 2892 2882
2970 2888 2874
2958 2867 2846
2965 2864 2832
2969 2856 2824
2965 2852 2816
2966 2848 2818
2954 2824 2790
2957 2818 2777
2954 2814 2765
2955 2816 2769
2952 2805 2760
2951 2784 2723
2946 2776 2718
2945 2766 2710
2950 2769 2708
2938 2757 2692
2934 2751 2684
2940 2752 2682
2937 2739 2666
2938 2729 2666
2928 2715 2653
2930 2718 2655
2928 2703 2634
2930 2707 2645
2930 2713 2634
2926 2699 2621
2929 2698 2623
2915 2678 2600
2911 2683 2597
2909 2668 2593
2907 2681 2592
2907 2659 2577
2898 2662 2571
2903 2657 2576
2897 2658 2569
2901 2658 2570
2892 2648 2563
2893 2634 2550
2895 2633 2548
2887 2619 2535
2890 2622 2533
2883 2609 2521
2881 2597 2502
2873 2599 2499
2875 2598 2506
2866 2582 2488
2863 2566 2478
2866 2567 2482
2847 2550 2462
2849 2545 2444
2843 2538 2439
2845 2539 2441
2841 2541 2438
2848 2536 2429
2847 2530 2425
2843 2524 2415
2838 2515 2413
2838 2507 2409
2837 2505 2410
2836 2504 2395
2826 2492 2380
2824 2489 2383
2826 2488 2376
2826 2484 2380
2829 2484 2361
2824 2478 2369
2816 2480 2365
2821 2469 2347
2820 2476 2347
2814 2466 2340
2818 2462 2336
2816 2459 2337
2910 2579 2471
3423 3242 3176
3757 3667 3633
3812 3737 3708
3762 3668 3637
3408 3214 3152
2932 2607 2502
2799 2431 2308
2803 2431 2317
2803 2431 2317
2801 2428 2319
2801 2428 2319
2799 2421 2302
2803 2421 2302
2803 2421 2307
2799 2421 2302
2799 2421 2307
2803 2421 2307
2803 2429 2302
2790 2425 2297
2788 2415 2285
2792 2415 2285
2792 2415 2285
2792 2415 2285
2790 2412 2287
2790 2404 2287
2788 2401 2279
2781 2408 2277
2779 2405 2274
2779 2405 2270
2788 2405 2274
2785 2402 2271
2785 2402 2271
2785 2402 2271
2790 2402 2271
2794 2402 2271
2785 2402 2271
2783 2399 2268
2783 2399 2268
2783 2399 2268
2781 2396 2265
2774 2391 2267
2779 2391 2267
2777 2385 2265
2779 2391 2267
2779 2391 2267
2777 2385 2265
2772 2385 2265
2770 2382 2261
2774 2382 2261
2774 2382 2261
2774 2382 2261
2770 2382 2261
2770 2383 2256
2781 2392 2259
2779 2391 2261
2777 2388 2258
2777 2388 2258
2775 2388 2251
2778 2387 2249
2778 2387 2249
2778 2382 2249
2770 2388 2251
2773 2387 2254
2778 2387 2254
2775 2392 2266
2776 2386 2261
2779 2390 2259
2780 2396 2261
2776 2396 2261
2774 2390 2264
2780 2384 2255
2780 2394 2260
2780 2389 2265
2785 2389 2265
2783 2399 2274
2783 2404 2279
2791 2404 2272
2783 2404 2284
2795 2414 2281
2803 2414 2275
2793 2414 2280
2796 2419 2289
2791 2425 2289
2799 2420 2277
2804 2436 2292
2802 2437 2287
2805 2434 2278
2816 2439 2305
2804 2435 2315
2820 2451 2326
2830 2445 2326
2836 2451 2336
2836 2472 2342
2829 2468 2336
2835 2479 2358
2835 2500 2374
2836 2499 2379
2841 2504 2406
2841 2514 2395
2847 2525 2412
2848 2539 2416
2858 2550 2427
2865 2564 2442
2876 2572 2452
2866 2571 2472
2859 2581 2481
2869 2596 2496
2869 2601 2506
2883 2633 2538
2895 2642 2550
2894 2663 2572
2905 2679 2588
2895 2676 2605
2911 2696 2617
2911 2702 2634
2915 2725 2652
2923 2730 2674
2921 2749 2699
2917 2768 2719
2914 2775 2739
2934 2807 2767
2931 2811 2766
2925 2807 2781
2940 2834 2820
2941 2833 2823
2943 2847 2835
2949 2858 2846
2953 2870 2860
2957 2870 2865
2950 2874 2863
2962 2886 2885
2952 2881 2883
2960 2888 2898
2961 2898 2902
2941 2886 2903
2956 2910 2921
2963 2917 2924
2968 2920 2932
2971 2938 2945
2970 2934 2944
2963 2923 2933
2962 2927 2948
2952 2934 2957
2964 2944 2961
2967 2948 2972
2964 2942 2973
2963 2956 2980
2975 2956 2980
2963 2956 2968
2963 2956 2968
2963 2944 2968
2975 2956 2980
2975 2956 2980
2963 2944 2968
2963 2944 2968
2975 2956 2980
2975 2956 2980
2975 2956 2980
2975 2956 2980
2975 2956 2980
2975 2956 2980
2975 2956 2980
2975 2956 2980
2975 2956 2980
2975 2956 2980
2975 2956 2980
2975 2956 2980
2975 2956 2980
2975 2956 2980
2975 2956 2980
2975 2956 2980
2975 2956 2980
2975 2956 2980
2975 2956 2980
2975 2956 2980
2975 2956 2980
2975 2956 2980
2975 2956 2980
2975 2956 2980
2975 2956 2980
2975 2956 2980
2975 2956 2980
2975 2956 2980
2975 2956 2980
2975 2956 2980
2975 2956 2980
2975 2956 2980
2975 2956 2980
2975 2956 2980
2975 2956 2980
2975 2956 2980
2975 2956 2980
2975 2956 2980
2975 2956 2980
2975 2956 2980
2975 2956 2980
2975 2956 2980
2975 2956 2980
2975 2956 2980
2975 2956 2980
2975 2956 2980
2975 2956 2980
2975 2956 2980
2975 2956 2980
2975 2956 2980
2975 2956 2980
2975 2956 2980
2975 2956 2980
2975 2956 2980
2975 2956 2980
2975 2956 2980
2975 2956 2980
2975 2956 2980
2975 2956 2980
2975 2956 2980
2975 2956 2980
2975 2956 2980
2975 2956 2980
2975 2956 2980
2975 2956 2980
2975 2956 2980
2975 2956 2980
2975 2956 2980
2975 2956 2980
2975 2956 2980
2975 2956 2980
2975 2956 2980
2975 2956 2980
2975 2956 2980
2975 2956 2980
2975 2956 2980
2975 2956 2980
2975 2956 2980
2975 2956 2980
2975 2956 2980
2975 2956 2980
2975 2956 2980
2975 2956 2980
2975 2956 2980
2975 2956 2980
2975 2956 2980
2975 2956 2980
2975 2956 2980
2975 2956 2980
2975 2956 2980
2975 2956 2980
2975 2956 2980
2975 2956 2980
2975 2956 2980
2975 2956 2980
2975 2956 2980
2975 2956 2980
2975 2956 2980
2975 2956 2980
2975 2956 2980
2975 2956 2980
2975 2956 2980
2975 2956 2980
2975 2956 2980
2975 2956 2980
2975 2956 2980
2975 2956 2980
2975 2956 2980
2975 2956 2980
2975 2956 2980
2975 2956 2980
2975 2956 2980
2975 2956 2980
2975 2956 2980
2975 2956 2980
2975 2956 2980
2975 2956 2980
2975 2956 2980
2975 2956 2980
2975 2956 2980
2975 2956 2980
2975 2956 2980
2975 2956 2980
2975 2956 2980
2975 2956 2980
2975 2956 2980
2975 2956 2980
2975 2956 2980
2975 2956 2980
